;This Gcode has been generated specifically for the LulzBot Mini
;Basic settings: Layer height: 0.38 Walls: 1 Fill: 20
;Filament Diameter: 2.85
;Nozzle Size: 0.5
G21                          ; metric values
G90                          ; absolute positioning
M82                          ; set extruder to absolute mode
M107                         ; start with the fan off
G92 E0                       ; set extruder position to 0
M140 S60; get bed heating up
G28                          ; home all
M109 S140                    ; set to cleaning temp and wait
G1 Z150 E-30 F75             ; suck up XXmm of filament
M109 S140                    ; heat up rest of way
G1 X45 Y174 F11520           ; move behind scraper
G1 Z0  F1200                 ; CRITICAL: set Z to height of top of scraper
G1 X45 Y174 Z-.5 F4000       ; wiping ; plunge into wipe pad
G1 X55 Y172 Z-.5 F4000       ; wiping
G1 X45 Y174 Z0 F4000         ; wiping
G1 X55 Y172 F4000            ; wiping
G1 X45 Y174 F4000            ; wiping
G1 X55 Y172 F4000            ; wiping
G1 X45 Y174 F4000            ; wiping
G1 X55 Y172 F4000            ; wiping
G1 X60 Y174 F4000            ; wiping
G1 X80 Y172 F4000            ; wiping
G1 X60 Y174 F4000            ; wiping
G1 X80 Y172 F4000            ; wiping
G1 X60 Y174 F4000            ; wiping
G1 X90 Y172 F4000            ; wiping
G1 X80 Y174 F4000            ; wiping
G1 X100 Y172 F4000           ; wiping
G1 X80 Y174 F4000            ; wiping
G1 X100 Y172 F4000           ; wiping
G1 X80 Y174 F4000            ; wiping
G1 X100 Y172 F4000           ; wiping
G1 X110 Y174 F4000           ; wiping
G1 X100 Y172 F4000           ; wiping
G1 X110 Y174 F4000           ; wiping
G1 X100 Y172 F4000           ; wiping
G1 X110 Y174 F4000           ; wiping
G1 X115 Y172 Z-0.5 F1000     ; wipe slower and bury noz in cleanish area
G1 Z10                       ; raise z
G28 X0 Y0                    ; home x and y
M109 S140                    ; set to probing temp
M204 S300                    ; Set probing acceleration
G29                          ; Probe
M204 S2000                   ; Restore standard acceleration
G1 X5 Y15 Z10 F5000          ; get out the way
G4 S1                        ; pause
M400                         ; clear buffer
M109 S205    ; set extruder temp and wait
G4 S15                       ; wait for bed to temp up
G1 Z2 E0 F75                 ; extrude filament back into nozzle
M140 S60; get bed temping up during first layer

;Layer count: 51
;LAYER:0
M107
G0 F10500 X63.134 Y4.858 Z0.425
;TYPE:SKIRT
G1 F900 X91.544 Y4.858 E1.18293
G1 X91.544 Y33.268 E2.36587
G1 X63.134 Y33.268 E3.54880
G1 X63.134 Y4.858 E4.73174
G0 F10500 X63.759 Y5.483
G1 F900 X90.919 Y5.483 E5.86262
G1 X90.919 Y32.643 E6.99351
G1 X63.759 Y32.643 E8.12440
G1 X63.759 Y5.483 E9.25528
G0 F10500 X64.384 Y6.108
G1 F900 X90.294 Y6.108 E10.33412
G1 X90.294 Y32.018 E11.41296
G1 X64.384 Y32.018 E12.49180
G1 X64.384 Y6.108 E13.57064
G1 F600 E12.07064
G1 Z0.525
G0 F10500 X68.633 Y10.357
;TYPE:WALL-INNER
G1 Z0.425
G1 F600 E13.57064
G1 F900 X86.045 Y10.357 E14.29564
G1 X86.045 Y27.769 E15.02064
G1 X68.633 Y27.769 E15.74564
G1 X68.633 Y10.357 E16.47064
G0 F10500 X68.008 Y9.732
;TYPE:WALL-OUTER
G1 F900 X86.670 Y9.732 E17.24769
G1 X86.670 Y28.394 E18.02474
G1 X68.008 Y28.394 E18.80178
G1 X68.008 Y9.732 E19.57883
G0 F10500 X68.850 Y10.957
;TYPE:SKIN
G1 F900 X85.443 Y27.549 E20.55588
G0 F10500 X85.825 Y27.047
G1 F900 X69.353 Y10.576 E21.52580
G0 F10500 X70.237 Y10.576
G1 F900 X85.825 Y26.163 E22.44367
G0 F10500 X85.825 Y25.279
G1 F900 X71.121 Y10.576 E23.30949
G0 F10500 X72.005 Y10.576
G1 F900 X85.825 Y24.395 E24.12325
G0 F10500 X85.825 Y23.512
G1 F900 X72.889 Y10.576 E24.88498
G0 F10500 X73.773 Y10.576
G1 F900 X85.825 Y22.628 E25.59466
G0 F10500 X85.825 Y21.744
G1 F900 X74.657 Y10.576 E26.25229
G0 F10500 X75.540 Y10.576
G1 F900 X85.825 Y20.860 E26.85789
G0 F10500 X84.559 Y27.549
G1 F900 X68.850 Y11.841 E27.78289
G0 F10500 X68.850 Y12.725
G1 F900 X83.675 Y27.549 E28.65583
G0 F10500 X82.791 Y27.549
G1 F900 X68.850 Y13.608 E29.47674
G0 F10500 X68.850 Y14.492
G1 F900 X81.907 Y27.549 E30.24560
G0 F10500 X81.023 Y27.549
G1 F900 X68.850 Y15.376 E30.96241
G0 F10500 X68.850 Y16.260
G1 F900 X80.139 Y27.549 E31.62716
G0 F10500 X79.256 Y27.549
G1 F900 X68.850 Y17.144 E32.23989
G0 F10500 X68.850 Y18.028
G1 F900 X78.372 Y27.549 E32.80056
G0 F10500 X77.488 Y27.549
G1 F900 X68.850 Y18.912 E33.30918
G0 F10500 X68.850 Y19.796
G1 F900 X76.604 Y27.549 E33.76575
G0 F10500 X75.720 Y27.549
G1 F900 X68.850 Y20.680 E34.17026
G0 F10500 X68.850 Y21.563
G1 F900 X74.836 Y27.549 E34.52274
G0 F10500 X73.952 Y27.549
G1 F900 X68.850 Y22.447 E34.82317
G0 F10500 X68.850 Y23.331
G1 F900 X73.068 Y27.549 E35.07155
G0 F10500 X72.184 Y27.549
G1 F900 X68.850 Y24.215 E35.26787
G0 F10500 X68.850 Y25.099
G1 F900 X71.301 Y27.549 E35.41217
G0 F10500 X70.417 Y27.549
G1 F900 X68.850 Y25.983 E35.50441
G0 F10500 X68.850 Y26.867
G1 F900 X69.533 Y27.549 E35.54460
G0 F10500 X85.825 Y19.976
G1 F900 X76.424 Y10.576 E36.09815
G0 F10500 X77.308 Y10.576
G1 F900 X85.825 Y19.092 E36.59964
G0 F10500 X85.825 Y18.208
G1 F900 X78.192 Y10.576 E37.04908
G0 F10500 X79.076 Y10.576
G1 F900 X85.825 Y17.324 E37.44647
G0 F10500 X85.825 Y16.440
G1 F900 X79.960 Y10.576 E37.79180
G0 F10500 X80.844 Y10.576
G1 F900 X85.825 Y15.557 E38.08511
G0 F10500 X85.825 Y14.673
G1 F900 X81.728 Y10.576 E38.32636
G0 F10500 X82.611 Y10.576
G1 F900 X85.825 Y13.789 E38.51558
G0 F10500 X85.825 Y12.905
G1 F900 X83.495 Y10.576 E38.65276
G0 F10500 X84.379 Y10.576
G1 F900 X85.825 Y12.021 E38.73787
G0 F10500 X85.825 Y11.137
G1 F900 X85.263 Y10.576 E38.77094
;LAYER:1
M106 S191
G0 F10500 X86.232 Y10.170 Z0.805
;TYPE:WALL-INNER
G1 F1140 X86.232 Y27.956 E39.30067
G1 X68.446 Y27.956 E39.83039
G1 X68.446 Y10.170 E40.36012
G1 X86.232 Y10.170 E40.88985
G0 F10500 X86.732 Y9.670
;TYPE:WALL-OUTER
G1 F1080 X86.732 Y28.456 E41.44936
G1 X67.946 Y28.456 E42.00887
G1 X67.946 Y9.670 E42.56838
G1 X86.732 Y9.670 E43.12789
G0 F10500 X86.056 Y10.463
;TYPE:SKIN
G1 F1380 X68.739 Y27.780 E43.85728
G0 F10500 X68.620 Y27.192
G1 F1380 X85.467 Y10.344 E44.56690
G0 F10500 X84.760 Y10.344
G1 F1380 X68.620 Y26.485 E45.24674
G0 F10500 X68.620 Y25.778
G1 F1380 X84.053 Y10.344 E45.89680
G0 F10500 X83.346 Y10.344
G1 F1380 X68.620 Y25.071 E46.51708
G0 F10500 X68.620 Y24.364
G1 F1380 X82.639 Y10.344 E47.10758
G0 F10500 X81.932 Y10.344
G1 F1380 X68.620 Y23.656 E47.66829
G0 F10500 X68.620 Y22.949
G1 F1380 X81.225 Y10.344 E48.19921
G0 F10500 X80.518 Y10.344
G1 F1380 X68.620 Y22.242 E48.70035
G0 F10500 X68.620 Y21.535
G1 F1380 X79.811 Y10.344 E49.17172
G0 F10500 X79.104 Y10.344
G1 F1380 X68.620 Y20.828 E49.61331
G0 F10500 X68.620 Y20.121
G1 F1380 X78.396 Y10.344 E50.02509
G0 F10500 X77.689 Y10.344
G1 F1380 X68.620 Y19.414 E50.40710
G0 F10500 X68.620 Y18.707
G1 F1380 X76.982 Y10.344 E50.75933
G0 F10500 X76.275 Y10.344
G1 F1380 X68.620 Y18.000 E51.08178
G0 F10500 X68.620 Y17.293
G1 F1380 X75.568 Y10.344 E51.37445
G0 F10500 X74.861 Y10.344
G1 F1380 X68.620 Y16.585 E51.63732
G0 F10500 X68.620 Y15.878
G1 F1380 X74.154 Y10.344 E51.87041
G0 F10500 X73.447 Y10.344
G1 F1380 X68.620 Y15.171 E52.07373
G0 F10500 X68.620 Y14.464
G1 F1380 X72.740 Y10.344 E52.24726
G0 F10500 X72.032 Y10.344
G1 F1380 X68.620 Y13.757 E52.39100
G0 F10500 X68.620 Y13.050
G1 F1380 X71.325 Y10.344 E52.50495
G0 F10500 X70.618 Y10.344
G1 F1380 X68.620 Y12.343 E52.58913
G0 F10500 X68.620 Y11.636
G1 F1380 X69.911 Y10.344 E52.64353
G0 F10500 X69.204 Y10.344
G1 F1380 X68.620 Y10.929 E52.66815
G0 F10500 X69.446 Y27.780
G1 F1380 X86.056 Y11.170 E53.36776
G0 F10500 X86.056 Y11.877
G1 F1380 X70.153 Y27.780 E54.03760
G0 F10500 X70.860 Y27.780
G1 F1380 X86.056 Y12.585 E54.67763
G0 F10500 X86.056 Y13.292
G1 F1380 X71.567 Y27.780 E55.28789
G0 F10500 X72.274 Y27.780
G1 F1380 X86.056 Y13.999 E55.86837
G0 F10500 X86.056 Y14.706
G1 F1380 X72.981 Y27.780 E56.41907
G0 F10500 X73.689 Y27.780
G1 F1380 X86.056 Y15.413 E56.93996
G0 F10500 X86.056 Y16.120
G1 F1380 X74.396 Y27.780 E57.43108
G0 F10500 X75.103 Y27.780
G1 F1380 X86.056 Y16.827 E57.89242
G0 F10500 X86.056 Y17.534
G1 F1380 X75.810 Y27.780 E58.32399
G0 F10500 X76.517 Y27.780
G1 F1380 X86.056 Y18.241 E58.72577
G0 F10500 X86.056 Y18.949
G1 F1380 X77.224 Y27.780 E59.09775
G0 F10500 X77.931 Y27.780
G1 F1380 X86.056 Y19.656 E59.43996
G0 F10500 X86.056 Y20.363
G1 F1380 X78.638 Y27.780 E59.75238
G0 F10500 X79.345 Y27.780
G1 F1380 X86.056 Y21.070 E60.03503
G0 F10500 X86.056 Y21.777
G1 F1380 X80.052 Y27.780 E60.28790
G0 F10500 X80.760 Y27.780
G1 F1380 X86.056 Y22.484 E60.51097
G0 F10500 X86.056 Y23.191
G1 F1380 X81.467 Y27.780 E60.70425
G0 F10500 X82.174 Y27.780
G1 F1380 X86.056 Y23.898 E60.86776
G0 F10500 X86.056 Y24.605
G1 F1380 X82.881 Y27.780 E61.00150
G0 F10500 X83.588 Y27.780
G1 F1380 X86.056 Y25.313 E61.10543
G0 F10500 X86.056 Y26.020
G1 F1380 X84.295 Y27.780 E61.17958
G0 F10500 X85.002 Y27.780
G1 F1380 X86.056 Y26.727 E61.22395
G0 F10500 X86.056 Y27.434
G1 F1380 X85.709 Y27.780 E61.23855
;LAYER:2
G0 F10500 X86.232 Y27.956 Z1.185
;TYPE:WALL-INNER
G1 F1440 X68.446 Y27.956 E61.76828
G1 X68.446 Y10.170 E62.29800
G1 X86.232 Y10.170 E62.82773
G1 X86.232 Y27.956 E63.35746
G0 F10500 X86.732 Y28.456
;TYPE:WALL-OUTER
G1 F1320 X67.946 Y28.456 E63.91697
G1 X67.946 Y9.670 E64.47648
G1 X86.732 Y9.670 E65.03599
G1 X86.732 Y28.456 E65.59550
G0 F10500 X86.056 Y27.720
;TYPE:SKIN
G1 F1920 X68.681 Y10.344 E66.32736
G0 F10500 X68.620 Y10.991
G1 F1920 X85.410 Y27.780 E67.03453
G0 F10500 X84.702 Y27.780
G1 F1920 X68.620 Y11.698 E67.71191
G0 F10500 X68.620 Y12.405
G1 F1920 X83.995 Y27.780 E68.35950
G0 F10500 X83.288 Y27.780
G1 F1920 X68.620 Y13.112 E68.97732
G0 F10500 X68.620 Y13.819
G1 F1920 X82.581 Y27.780 E69.56536
G0 F10500 X81.874 Y27.780
G1 F1920 X68.620 Y14.526 E70.12362
G0 F10500 X68.620 Y15.233
G1 F1920 X81.167 Y27.780 E70.65210
G0 F10500 X80.460 Y27.780
G1 F1920 X68.620 Y15.941 E71.15078
G0 F10500 X68.620 Y16.648
G1 F1920 X79.753 Y27.780 E71.61968
G0 F10500 X79.046 Y27.780
G1 F1920 X68.620 Y17.355 E72.05880
G0 F10500 X68.620 Y18.062
G1 F1920 X78.338 Y27.780 E72.46812
G0 F10500 X77.631 Y27.780
G1 F1920 X68.620 Y18.769 E72.84767
G0 F10500 X68.620 Y19.476
G1 F1920 X76.924 Y27.780 E73.19743
G0 F10500 X76.217 Y27.780
G1 F1920 X68.620 Y20.183 E73.51742
G0 F10500 X68.620 Y20.890
G1 F1920 X75.510 Y27.780 E73.80763
G0 F10500 X74.803 Y27.780
G1 F1920 X68.620 Y21.597 E74.06805
G0 F10500 X68.620 Y22.304
G1 F1920 X74.096 Y27.780 E74.29870
G0 F10500 X73.389 Y27.780
G1 F1920 X68.620 Y23.012 E74.49955
G0 F10500 X68.620 Y23.719
G1 F1920 X72.682 Y27.780 E74.67062
G0 F10500 X71.974 Y27.780
G1 F1920 X68.620 Y24.426 E74.81190
G0 F10500 X68.620 Y25.133
G1 F1920 X71.267 Y27.780 E74.92339
G0 F10500 X70.560 Y27.780
G1 F1920 X68.620 Y25.840 E75.00510
G0 F10500 X68.620 Y26.547
G1 F1920 X69.853 Y27.780 E75.05703
G0 F10500 X69.146 Y27.780
G1 F1920 X68.620 Y27.254 E75.07919
G0 F10500 X69.388 Y10.344
G1 F1920 X86.056 Y27.012 E75.78125
G0 F10500 X86.056 Y26.305
G1 F1920 X70.095 Y10.344 E76.45352
G0 F10500 X70.802 Y10.344
G1 F1920 X86.056 Y25.598 E77.09602
G0 F10500 X86.056 Y24.891
G1 F1920 X71.509 Y10.344 E77.70874
G0 F10500 X72.216 Y10.344
G1 F1920 X86.056 Y24.184 E78.29169
G0 F10500 X86.056 Y23.477
G1 F1920 X72.923 Y10.344 E78.84485
G0 F10500 X73.631 Y10.344
G1 F1920 X86.056 Y22.770 E79.36821
G0 F10500 X86.056 Y22.063
G1 F1920 X74.338 Y10.344 E79.86180
G0 F10500 X75.045 Y10.344
G1 F1920 X86.056 Y21.356 E80.32560
G0 F10500 X86.056 Y20.648
G1 F1920 X75.752 Y10.344 E80.75961
G0 F10500 X76.459 Y10.344
G1 F1920 X86.056 Y19.941 E81.16383
G0 F10500 X86.056 Y19.234
G1 F1920 X77.166 Y10.344 E81.53828
G0 F10500 X77.873 Y10.344
G1 F1920 X86.056 Y18.527 E81.88295
G0 F10500 X86.056 Y17.820
G1 F1920 X78.580 Y10.344 E82.19784
G0 F10500 X79.287 Y10.344
G1 F1920 X86.056 Y17.113 E82.48295
G0 F10500 X86.056 Y16.406
G1 F1920 X79.994 Y10.344 E82.73828
G0 F10500 X80.702 Y10.344
G1 F1920 X86.056 Y15.699 E82.96381
G0 F10500 X86.056 Y14.992
G1 F1920 X81.409 Y10.344 E83.15956
G0 F10500 X82.116 Y10.344
G1 F1920 X86.056 Y14.284 E83.32552
G0 F10500 X86.056 Y13.577
G1 F1920 X82.823 Y10.344 E83.46169
G0 F10500 X83.530 Y10.344
G1 F1920 X86.056 Y12.870 E83.56809
G0 F10500 X86.056 Y12.163
G1 F1920 X84.237 Y10.344 E83.64470
G0 F10500 X84.944 Y10.344
G1 F1920 X86.056 Y11.456 E83.69154
G0 F10500 X86.056 Y10.749
G1 F1920 X85.651 Y10.344 E83.70860
;LAYER:3
M106 S255
G0 F10500 X86.232 Y10.170 Z1.565
;TYPE:WALL-INNER
G1 F780 X86.232 Y27.956 E84.23833
G1 X68.446 Y27.956 E84.76805
G1 X68.446 Y10.170 E85.29778
G1 X86.232 Y10.170 E85.82751
G0 F10500 X86.732 Y9.670
;TYPE:WALL-OUTER
G1 F660 X86.732 Y28.456 E86.38702
G1 X67.946 Y28.456 E86.94653
G1 X67.946 Y9.670 E87.50604
G1 X86.732 Y9.670 E88.06555
G0 F10500 X86.382 Y9.930
G0 X85.114 Y10.344
;TYPE:FILL
G1 F900 X68.620 Y26.838 E88.76028
G0 F10500 X68.620 Y22.658
G1 F900 X73.742 Y27.780 E88.97602
G0 F10500 X74.749 Y27.780
G1 F900 X86.056 Y16.474 E89.45225
G0 F10500 X86.056 Y18.881
G1 F900 X77.520 Y10.344 E89.81181
G0 F10500 X78.043 Y10.344
G1 F900 X68.620 Y19.767 E90.20870
G0 F10500 X68.620 Y15.587
G1 F900 X80.813 Y27.780 E90.72227
G0 F10500 X81.820 Y27.780
G1 F900 X86.056 Y23.545 E90.90067
G0 F10500 X86.056 Y25.952
G1 F900 X70.449 Y10.344 E91.55806
G0 F10500 X70.972 Y10.344
G1 F900 X68.620 Y12.696 E91.65713
G0 F10500 X84.591 Y10.344
G1 F900 X86.056 Y11.810 E91.71886
;LAYER:4
G0 F10500 X86.232 Y10.170 Z1.945
;TYPE:WALL-INNER
G1 F780 X86.232 Y27.956 E92.24858
G1 X68.446 Y27.956 E92.77831
G1 X68.446 Y10.170 E93.30804
G1 X86.232 Y10.170 E93.83776
G0 F10500 X86.732 Y9.670
;TYPE:WALL-OUTER
G1 F660 X86.732 Y28.456 E94.39728
G1 X67.946 Y28.456 E94.95679
G1 X67.946 Y9.670 E95.51630
G1 X86.732 Y9.670 E96.07581
G0 F10500 X86.382 Y9.930
G0 X85.114 Y10.344
;TYPE:FILL
G1 F900 X68.620 Y26.838 E96.77054
G0 F10500 X68.620 Y22.658
G1 F900 X73.742 Y27.780 E96.98627
G0 F10500 X74.749 Y27.780
G1 F900 X86.056 Y16.474 E97.46250
G0 F10500 X86.056 Y18.881
G1 F900 X77.520 Y10.344 E97.82206
G0 F10500 X78.043 Y10.344
G1 F900 X68.620 Y19.767 E98.21896
G0 F10500 X68.620 Y15.587
G1 F900 X80.813 Y27.780 E98.73253
G0 F10500 X81.820 Y27.780
G1 F900 X86.056 Y23.545 E98.91093
G0 F10500 X86.056 Y25.952
G1 F900 X70.449 Y10.344 E99.56832
G0 F10500 X70.972 Y10.344
G1 F900 X68.620 Y12.696 E99.66738
G0 F10500 X84.591 Y10.344
G1 F900 X86.056 Y11.810 E99.72911
;LAYER:5
G0 F10500 X86.232 Y10.170 Z2.325
;TYPE:WALL-INNER
G1 F780 X86.232 Y27.956 E100.25884
G1 X68.446 Y27.956 E100.78857
G1 X68.446 Y10.170 E101.31829
G1 X86.232 Y10.170 E101.84802
G0 F10500 X86.732 Y9.670
;TYPE:WALL-OUTER
G1 F660 X86.732 Y28.456 E102.40753
G1 X67.946 Y28.456 E102.96704
G1 X67.946 Y9.670 E103.52655
G1 X86.732 Y9.670 E104.08606
G0 F10500 X86.382 Y9.930
G0 X85.114 Y10.344
;TYPE:FILL
G1 F900 X68.620 Y26.838 E104.78079
G0 F10500 X68.620 Y22.658
G1 F900 X73.742 Y27.780 E104.99653
G0 F10500 X74.749 Y27.780
G1 F900 X86.056 Y16.474 E105.47276
G0 F10500 X86.056 Y18.881
G1 F900 X77.520 Y10.344 E105.83232
G0 F10500 X78.043 Y10.344
G1 F900 X68.620 Y19.767 E106.22922
G0 F10500 X68.620 Y15.587
G1 F900 X80.813 Y27.780 E106.74279
G0 F10500 X81.820 Y27.780
G1 F900 X86.056 Y23.545 E106.92119
G0 F10500 X86.056 Y25.952
G1 F900 X70.449 Y10.344 E107.57857
G0 F10500 X70.972 Y10.344
G1 F900 X68.620 Y12.696 E107.67764
G0 F10500 X84.591 Y10.344
G1 F900 X86.056 Y11.810 E107.73937
;LAYER:6
G0 F10500 X86.232 Y10.170 Z2.705
;TYPE:WALL-INNER
G1 F780 X86.232 Y27.956 E108.26909
G1 X68.446 Y27.956 E108.79882
G1 X68.446 Y10.170 E109.32855
G1 X86.232 Y10.170 E109.85828
G0 F10500 X86.732 Y9.670
;TYPE:WALL-OUTER
G1 F660 X86.732 Y28.456 E110.41779
G1 X67.946 Y28.456 E110.97730
G1 X67.946 Y9.670 E111.53681
G1 X86.732 Y9.670 E112.09632
G0 F10500 X86.382 Y9.930
G0 X85.114 Y10.344
;TYPE:FILL
G1 F900 X68.620 Y26.838 E112.79105
G0 F10500 X68.620 Y22.658
G1 F900 X73.742 Y27.780 E113.00679
G0 F10500 X74.749 Y27.780
G1 F900 X86.056 Y16.474 E113.48302
G0 F10500 X86.056 Y18.881
G1 F900 X77.520 Y10.344 E113.84257
G0 F10500 X78.043 Y10.344
G1 F900 X68.620 Y19.767 E114.23947
G0 F10500 X68.620 Y15.587
G1 F900 X80.813 Y27.780 E114.75304
G0 F10500 X81.820 Y27.780
G1 F900 X86.056 Y23.545 E114.93144
G0 F10500 X86.056 Y25.952
G1 F900 X70.449 Y10.344 E115.58883
G0 F10500 X70.972 Y10.344
G1 F900 X68.620 Y12.696 E115.68790
G0 F10500 X84.591 Y10.344
G1 F900 X86.056 Y11.810 E115.74962
;LAYER:7
G0 F10500 X86.232 Y10.170 Z3.085
;TYPE:WALL-INNER
G1 F780 X86.232 Y27.956 E116.27935
G1 X68.446 Y27.956 E116.80908
G1 X68.446 Y10.170 E117.33881
G1 X86.232 Y10.170 E117.86853
G0 F10500 X86.732 Y9.670
;TYPE:WALL-OUTER
G1 F660 X86.732 Y28.456 E118.42804
G1 X67.946 Y28.456 E118.98755
G1 X67.946 Y9.670 E119.54706
G1 X86.732 Y9.670 E120.10657
G0 F10500 X86.382 Y9.930
G0 X85.114 Y10.344
;TYPE:FILL
G1 F900 X68.620 Y26.838 E120.80130
G0 F10500 X68.620 Y22.658
G1 F900 X73.742 Y27.780 E121.01704
G0 F10500 X74.749 Y27.780
G1 F900 X86.056 Y16.474 E121.49327
G0 F10500 X86.056 Y18.881
G1 F900 X77.520 Y10.344 E121.85283
G0 F10500 X78.043 Y10.344
G1 F900 X68.620 Y19.767 E122.24973
G0 F10500 X68.620 Y15.587
G1 F900 X80.813 Y27.780 E122.76330
G0 F10500 X81.820 Y27.780
G1 F900 X86.056 Y23.545 E122.94170
G0 F10500 X86.056 Y25.952
G1 F900 X70.449 Y10.344 E123.59909
G0 F10500 X70.972 Y10.344
G1 F900 X68.620 Y12.696 E123.69815
G0 F10500 X84.591 Y10.344
G1 F900 X86.056 Y11.810 E123.75988
;LAYER:8
G0 F10500 X86.232 Y10.170 Z3.465
;TYPE:WALL-INNER
G1 F780 X86.232 Y27.956 E124.28961
G1 X68.446 Y27.956 E124.81933
G1 X68.446 Y10.170 E125.34906
G1 X86.232 Y10.170 E125.87879
G0 F10500 X86.732 Y9.670
;TYPE:WALL-OUTER
G1 F660 X86.732 Y28.456 E126.43830
G1 X67.946 Y28.456 E126.99781
G1 X67.946 Y9.670 E127.55732
G1 X86.732 Y9.670 E128.11683
G0 F10500 X86.382 Y9.930
G0 X85.114 Y10.344
;TYPE:FILL
G1 F900 X68.620 Y26.838 E128.81156
G0 F10500 X68.620 Y22.658
G1 F900 X73.742 Y27.780 E129.02730
G0 F10500 X74.749 Y27.780
G1 F900 X86.056 Y16.474 E129.50353
G0 F10500 X86.056 Y18.881
G1 F900 X77.520 Y10.344 E129.86309
G0 F10500 X78.043 Y10.344
G1 F900 X68.620 Y19.767 E130.25998
G0 F10500 X68.620 Y15.587
G1 F900 X80.813 Y27.780 E130.77355
G0 F10500 X81.820 Y27.780
G1 F900 X86.056 Y23.545 E130.95195
G0 F10500 X86.056 Y25.952
G1 F900 X70.449 Y10.344 E131.60934
G0 F10500 X70.972 Y10.344
G1 F900 X68.620 Y12.696 E131.70841
G0 F10500 X84.591 Y10.344
G1 F900 X86.056 Y11.810 E131.77014
G0 F10500 X85.760 Y17.524
;TYPE:SKIN
G1 F1140 X86.056 Y17.820 E131.78260
G0 F10500 X86.056 Y18.527
G1 F1140 X85.053 Y17.524 E131.82485
G0 F10500 X84.346 Y17.524
G1 F1140 X86.056 Y19.234 E131.89687
G0 F10500 X86.056 Y19.941
G1 F1140 X84.117 Y18.002 E131.97855
G0 F10500 X84.116 Y18.708
G1 F1140 X86.006 Y20.598 E132.05815
G0 F10500 X85.298 Y20.598
G1 F1140 X84.113 Y19.413 E132.10806
G0 F10500 X84.112 Y20.119
G1 F1140 X84.591 Y20.598 E132.12824
;LAYER:9
G0 F10500 X86.232 Y27.956 Z3.845
;TYPE:WALL-INNER
G1 F780 X68.446 Y27.956 E132.65797
G1 X68.446 Y10.170 E133.18769
G1 X86.232 Y10.170 E133.71742
G1 X86.232 Y27.956 E134.24715
G0 F10500 X86.732 Y28.456
;TYPE:WALL-OUTER
G1 F660 X67.946 Y28.456 E134.80666
G1 X67.946 Y9.670 E135.36617
G1 X86.732 Y9.670 E135.92568
G1 X86.732 Y28.456 E136.48519
G0 F10500 X86.382 Y28.196
G0 X86.056 Y25.952
;TYPE:FILL
G1 F900 X70.449 Y10.344 E137.14258
G0 F10500 X70.972 Y10.344
G1 F900 X68.620 Y12.696 E137.24165
G0 F10500 X68.620 Y15.587
G1 F900 X80.813 Y27.780 E137.75522
G0 F10500 X81.820 Y27.780
G1 F900 X86.056 Y23.545 E137.93362
G0 F10500 X86.056 Y18.881
G1 F900 X77.520 Y10.344 E138.29317
G0 F10500 X78.043 Y10.344
G1 F900 X68.620 Y19.767 E138.69007
G0 F10500 X68.620 Y22.658
G1 F900 X73.742 Y27.780 E138.90581
G0 F10500 X74.749 Y27.780
G1 F900 X86.056 Y16.474 E139.38204
G0 F10500 X86.056 Y11.810
G1 F900 X84.591 Y10.344 E139.44377
G0 F10500 X85.114 Y10.344
G1 F900 X68.620 Y26.838 E140.13850
G0 F10500 X84.114 Y20.183
;TYPE:SKIN
G1 F1140 X86.056 Y18.241 E140.22029
G0 F10500 X86.056 Y17.534
G1 F1140 X84.114 Y19.476 E140.30209
G0 F10500 X84.114 Y18.769
G1 F1140 X85.359 Y17.524 E140.35453
G0 F10500 X84.651 Y17.524
G1 F1140 X84.114 Y18.062 E140.37717
G0 F10500 X86.056 Y18.949
G1 F1140 X84.404 Y20.600 E140.44673
G0 F10500 X85.111 Y20.600
G1 F1140 X86.056 Y19.656 E140.48651
G0 F10500 X86.056 Y20.363
G1 F1140 X85.818 Y20.600 E140.49652
;LAYER:10
G0 F10500 X86.232 Y27.956 Z4.225
;TYPE:WALL-INNER
G1 F780 X68.446 Y27.956 E141.02624
G1 X68.446 Y10.170 E141.55597
G1 X86.232 Y10.170 E142.08570
G1 X86.232 Y27.956 E142.61543
G0 F10500 X86.732 Y28.456
;TYPE:WALL-OUTER
G1 F660 X67.946 Y28.456 E143.17494
G1 X67.946 Y9.670 E143.73445
G1 X86.732 Y9.670 E144.29396
G1 X86.732 Y28.456 E144.85347
G0 F10500 X86.382 Y28.196
G0 X86.056 Y25.952
;TYPE:FILL
G1 F900 X70.449 Y10.344 E145.51086
G0 F10500 X70.972 Y10.344
G1 F900 X68.620 Y12.696 E145.60992
G0 F10500 X68.620 Y15.587
G1 F900 X80.813 Y27.780 E146.12349
G0 F10500 X81.820 Y27.780
G1 F900 X86.056 Y23.545 E146.30189
G0 F10500 X86.056 Y18.881
G1 F900 X77.520 Y10.344 E146.66145
G0 F10500 X78.043 Y10.344
G1 F900 X68.620 Y19.767 E147.05835
G0 F10500 X68.620 Y22.658
G1 F900 X73.742 Y27.780 E147.27409
G0 F10500 X74.749 Y27.780
G1 F900 X86.056 Y16.474 E147.75032
G0 F10500 X86.056 Y11.810
G1 F900 X84.591 Y10.344 E147.81204
G0 F10500 X85.114 Y10.344
G1 F900 X68.620 Y26.838 E148.50677
G0 F10500 X84.114 Y20.121
;TYPE:SKIN
G1 F1140 X84.594 Y20.600 E148.52697
G0 F10500 X85.301 Y20.600
G1 F1140 X84.114 Y19.414 E148.57694
G0 F10500 X84.114 Y18.707
G1 F1140 X86.008 Y20.600 E148.65670
G0 F10500 X86.056 Y19.941
G1 F1140 X84.114 Y18.000 E148.73847
G0 F10500 X84.346 Y17.524
G1 F1140 X86.056 Y19.234 E148.81050
G0 F10500 X86.056 Y18.527
G1 F1140 X85.053 Y17.524 E148.85275
G0 F10500 X85.760 Y17.524
G1 F1140 X86.056 Y17.820 E148.86521
;LAYER:11
G0 F10500 X84.195 Y17.600 Z4.605
;TYPE:WALL-INNER
G1 F780 X84.188 Y20.523 E148.95227
G1 X86.230 Y20.525 E149.01309
G1 X86.232 Y21.954 E149.05565
G1 X86.232 Y27.956 E149.23441
G1 X68.446 Y27.956 E149.76414
G1 X68.446 Y10.170 E150.29386
G1 X86.232 Y10.170 E150.82359
G1 X86.232 Y17.600 E151.04488
G1 X84.195 Y17.600 E151.10555
G0 F10500 X84.694 Y18.100
;TYPE:WALL-OUTER
G1 F660 X84.689 Y20.024 E151.16285
G1 X86.729 Y20.026 E151.22361
G1 X86.732 Y28.456 E151.47469
G1 X67.946 Y28.456 E152.03420
G1 X67.946 Y9.670 E152.59371
G1 X86.732 Y9.670 E153.15322
G1 X86.732 Y18.100 E153.40429
G1 X84.694 Y18.100 E153.46499
G0 F10500 X84.599 Y17.424
;TYPE:FILL
G1 F900 X77.520 Y10.344 E153.76318
G0 F10500 X78.043 Y10.344
G1 F900 X68.620 Y19.767 E154.16008
G0 F10500 X68.620 Y15.587
G1 F900 X80.813 Y27.780 E154.67365
G0 F10500 X81.820 Y27.780
G1 F900 X86.054 Y23.546 E154.85198
G0 F10500 X86.056 Y25.952
G1 F900 X70.449 Y10.344 E155.50937
G0 F10500 X70.972 Y10.344
G1 F900 X68.620 Y12.696 E155.60844
G0 F10500 X68.620 Y22.658
G1 F900 X73.742 Y27.780 E155.82418
G0 F10500 X74.749 Y27.780
G1 F900 X84.017 Y18.513 E156.21452
G0 F10500 X84.303 Y17.709
G0 X85.105 Y17.425
G1 F900 X86.056 Y16.474 E156.25458
G0 F10500 X86.056 Y11.810
G1 F900 X84.591 Y10.344 E156.31631
G0 F10500 X85.114 Y10.344
G1 F900 X68.620 Y26.838 E157.01104
;LAYER:12
G0 F10500 X68.446 Y27.956 Z4.985
;TYPE:WALL-INNER
G1 F780 X68.446 Y10.170 E157.54076
G1 X86.232 Y10.170 E158.07049
G1 X86.232 Y17.600 E158.29178
G1 X84.190 Y17.600 E158.35260
G1 X84.190 Y20.526 E158.43974
G1 X86.232 Y20.526 E158.50056
G1 X86.232 Y27.956 E158.72185
G1 X68.446 Y27.956 E159.25158
G0 F10500 X67.946 Y28.456
;TYPE:WALL-OUTER
G1 F660 X67.946 Y9.670 E159.81109
G1 X86.732 Y9.670 E160.37060
G1 X86.732 Y18.100 E160.62167
G1 X84.690 Y18.100 E160.68249
G1 X84.690 Y20.026 E160.73986
G1 X86.732 Y20.026 E160.80067
G1 X86.732 Y28.456 E161.05175
G1 X67.946 Y28.456 E161.61126
G0 F10500 X68.206 Y28.106
G0 X68.620 Y26.838
;TYPE:FILL
G1 F900 X85.114 Y10.344 E162.30599
G0 F10500 X84.591 Y10.344
G1 F900 X86.056 Y11.810 E162.36771
G0 F10500 X86.056 Y16.474
G1 F900 X85.105 Y17.424 E162.40775
G0 F10500 X84.599 Y17.424
G1 F900 X77.520 Y10.344 E162.70594
G0 F10500 X78.043 Y10.344
G1 F900 X68.620 Y19.767 E163.10283
G0 F10500 X68.620 Y15.587
G1 F900 X80.813 Y27.780 E163.61640
G0 F10500 X81.820 Y27.780
G1 F900 X86.056 Y23.545 E163.79480
G0 F10500 X86.056 Y25.952
G1 F900 X70.449 Y10.344 E164.45219
G0 F10500 X70.972 Y10.344
G1 F900 X68.620 Y12.696 E164.55126
G0 F10500 X68.620 Y22.658
G1 F900 X73.742 Y27.780 E164.76700
G0 F10500 X74.749 Y27.780
G1 F900 X84.014 Y18.516 E165.15722
;LAYER:13
G0 F10500 X84.190 Y17.600 Z5.365
;TYPE:WALL-INNER
G1 F780 X84.190 Y20.526 E165.24437
G1 X86.232 Y20.526 E165.30518
G1 X86.232 Y27.956 E165.52647
G1 X68.446 Y27.956 E166.05620
G1 X68.446 Y10.170 E166.58593
G1 X86.232 Y10.170 E167.11566
G1 X86.232 Y17.600 E167.33695
G1 X84.190 Y17.600 E167.39776
G0 F10500 X84.690 Y18.100
;TYPE:WALL-OUTER
G1 F660 X84.690 Y20.026 E167.45513
G1 X86.732 Y20.026 E167.51594
G1 X86.732 Y28.456 E167.76702
G1 X67.946 Y28.456 E168.32653
G1 X67.946 Y9.670 E168.88604
G1 X86.732 Y9.670 E169.44555
G1 X86.732 Y18.100 E169.69662
G1 X84.690 Y18.100 E169.75744
G0 F10500 X84.599 Y17.424
;TYPE:FILL
G1 F900 X77.520 Y10.344 E170.05563
G0 F10500 X78.043 Y10.344
G1 F900 X68.620 Y19.767 E170.45253
G0 F10500 X68.620 Y15.587
G1 F900 X80.813 Y27.780 E170.96610
G0 F10500 X81.820 Y27.780
G1 F900 X86.056 Y23.545 E171.14450
G0 F10500 X86.056 Y25.952
G1 F900 X70.449 Y10.344 E171.80189
G0 F10500 X70.972 Y10.344
G1 F900 X68.620 Y12.696 E171.90095
G0 F10500 X68.620 Y22.658
G1 F900 X73.742 Y27.780 E172.11669
G0 F10500 X74.749 Y27.780
G1 F900 X84.014 Y18.516 E172.50691
G0 F10500 X84.299 Y17.709
G0 X85.105 Y17.424
G1 F900 X86.056 Y16.474 E172.54695
G0 F10500 X86.056 Y11.810
G1 F900 X84.591 Y10.344 E172.60867
G0 F10500 X85.114 Y10.344
G1 F900 X68.620 Y26.838 E173.30340
;LAYER:14
G0 F10500 X68.446 Y27.956 Z5.745
;TYPE:WALL-INNER
G1 F840 X68.446 Y10.170 E173.83313
G1 X86.232 Y10.170 E174.36286
G1 X86.232 Y17.600 E174.58415
G1 X84.190 Y17.600 E174.64497
G1 X84.190 Y20.526 E174.73211
G1 X86.232 Y20.526 E174.79293
G1 X86.232 Y27.956 E175.01422
G1 X68.446 Y27.956 E175.54395
G0 F10500 X67.946 Y28.456
;TYPE:WALL-OUTER
G1 F720 X67.946 Y9.670 E176.10346
G1 X86.732 Y9.670 E176.66297
G1 X86.732 Y18.100 E176.91404
G1 X84.690 Y18.100 E176.97486
G1 X84.690 Y20.026 E177.03222
G1 X86.732 Y20.026 E177.09304
G1 X86.732 Y28.456 E177.34411
G1 X67.946 Y28.456 E177.90362
G0 F10500 X68.206 Y28.106
G0 X68.620 Y26.838
;TYPE:FILL
G1 F960 X85.114 Y10.344 E178.59835
G0 F10500 X84.591 Y10.344
G1 F960 X86.056 Y11.810 E178.66008
G0 F10500 X86.056 Y16.474
G1 F960 X85.105 Y17.424 E178.70011
G0 F10500 X84.599 Y17.424
G1 F960 X77.520 Y10.344 E178.99830
G0 F10500 X78.043 Y10.344
G1 F960 X68.620 Y19.767 E179.39520
G0 F10500 X68.620 Y15.587
G1 F960 X80.813 Y27.780 E179.90877
G0 F10500 X81.820 Y27.780
G1 F960 X86.056 Y23.545 E180.08717
G0 F10500 X86.056 Y25.952
G1 F960 X70.449 Y10.344 E180.74456
G0 F10500 X70.972 Y10.344
G1 F960 X68.620 Y12.696 E180.84363
G0 F10500 X68.620 Y22.658
G1 F960 X73.742 Y27.780 E181.05936
G0 F10500 X74.749 Y27.780
G1 F960 X84.014 Y18.516 E181.44959
G0 F10500 X70.376 Y16.990
;TYPE:SKIN
G1 F1200 X68.679 Y15.292 E181.52108
G0 F10500 X68.620 Y15.941
G1 F1200 X69.938 Y17.259 E181.57660
G0 F10500 X69.231 Y17.259
G1 F1200 X68.620 Y16.648 E181.60233
G0 F10500 X69.386 Y15.292
G1 F1200 X70.376 Y16.283 E181.64405
G0 F10500 X70.376 Y15.576
G1 F1200 X70.094 Y15.293 E181.65595
G0 F10500 X70.094 Y20.950
G1 F1200 X70.376 Y21.233 E181.66785
G0 F10500 X70.376 Y21.940
G1 F1200 X69.386 Y20.949 E181.70957
G0 F10500 X68.679 Y20.949
G1 F1200 X70.376 Y22.647 E181.78107
G0 F10500 X69.938 Y22.915
G1 F1200 X68.620 Y21.597 E181.83659
G0 F10500 X68.620 Y22.304
G1 F1200 X69.231 Y22.915 E181.86232
;LAYER:15
G0 F10500 X68.446 Y27.956 Z6.125
;TYPE:WALL-INNER
G1 F840 X68.446 Y10.170 E182.39205
G1 X86.232 Y10.170 E182.92178
G1 X86.232 Y27.956 E183.45150
G1 X68.446 Y27.956 E183.98123
G0 F10500 X67.946 Y28.456
;TYPE:WALL-OUTER
G1 F720 X67.946 Y9.670 E184.54074
G1 X86.732 Y9.670 E185.10025
G1 X86.732 Y28.456 E185.65976
G1 X67.946 Y28.456 E186.21927
G0 F10500 X68.206 Y28.106
G0 X68.620 Y26.838
;TYPE:FILL
G1 F960 X85.114 Y10.344 E186.91400
G0 F10500 X84.591 Y10.344
G1 F960 X86.056 Y11.810 E186.97573
G0 F10500 X86.056 Y16.474
G1 F960 X74.749 Y27.780 E187.45196
G0 F10500 X73.742 Y27.780
G1 F960 X68.620 Y22.658 E187.66770
G0 F10500 X68.620 Y19.767
G1 F960 X78.043 Y10.344 E188.06459
G0 F10500 X77.520 Y10.344
G1 F960 X86.056 Y18.881 E188.42415
G0 F10500 X86.056 Y23.545
G1 F960 X81.820 Y27.780 E188.60255
G0 F10500 X80.813 Y27.780
G1 F960 X68.620 Y15.587 E189.11612
G0 F10500 X68.620 Y12.696
G1 F960 X70.972 Y10.344 E189.21519
G0 F10500 X70.449 Y10.344
G1 F960 X86.056 Y25.952 E189.87258
G0 F10500 X85.818 Y20.600
;TYPE:SKIN
G1 F1200 X86.056 Y20.363 E189.88258
G0 F10500 X86.056 Y19.656
G1 F1200 X85.111 Y20.600 E189.92236
G0 F10500 X84.404 Y20.600
G1 F1200 X86.056 Y18.949 E189.99192
G0 F10500 X86.056 Y18.241
G1 F1200 X84.114 Y20.183 E190.07372
G0 F10500 X84.114 Y19.476
G1 F1200 X86.056 Y17.534 E190.15552
G0 F10500 X85.359 Y17.524
G1 F1200 X84.114 Y18.769 E190.20796
G0 F10500 X84.114 Y18.062
G1 F1200 X84.651 Y17.524 E190.23060
G0 F10500 X70.376 Y16.950
G1 F1200 X69.688 Y17.639 E190.25960
G0 F10500 X68.981 Y17.639
G1 F1200 X70.376 Y16.243 E190.31838
G0 F10500 X70.376 Y15.536
G1 F1200 X68.620 Y17.293 E190.39236
G0 F10500 X68.620 Y16.585
G1 F1200 X70.294 Y14.912 E190.46285
G0 F10500 X69.587 Y14.912
G1 F1200 X68.620 Y15.878 E190.50356
G0 F10500 X68.620 Y15.171
G1 F1200 X68.879 Y14.912 E190.51447
G0 F10500 X68.879 Y20.569
G1 F1200 X68.620 Y20.828 E190.52537
G0 F10500 X68.620 Y21.535
G1 F1200 X69.587 Y20.569 E190.56608
G0 F10500 X70.294 Y20.569
G1 F1200 X68.620 Y22.242 E190.63657
G0 F10500 X68.620 Y22.949
G1 F1200 X70.376 Y21.193 E190.71053
G0 F10500 X70.376 Y21.900
G1 F1200 X68.981 Y23.296 E190.76931
G0 F10500 X69.688 Y23.296
G1 F1200 X70.376 Y22.607 E190.79831
;LAYER:16
G0 F10500 X68.446 Y27.956 Z6.505
;TYPE:WALL-INNER
G1 F840 X68.446 Y10.170 E191.32804
G1 X86.232 Y10.170 E191.85777
G1 X86.232 Y27.956 E192.38749
G1 X68.446 Y27.956 E192.91722
G0 F10500 X67.946 Y28.456
;TYPE:WALL-OUTER
G1 F720 X67.946 Y9.670 E193.47673
G1 X86.732 Y9.670 E194.03624
G1 X86.732 Y28.456 E194.59575
G1 X67.946 Y28.456 E195.15526
G0 F10500 X68.206 Y28.106
G0 X68.620 Y26.838
;TYPE:FILL
G1 F960 X85.114 Y10.344 E195.84999
G0 F10500 X84.591 Y10.344
G1 F960 X86.056 Y11.810 E195.91172
G0 F10500 X86.056 Y16.474
G1 F960 X74.749 Y27.780 E196.38795
G0 F10500 X73.742 Y27.780
G1 F960 X68.620 Y22.658 E196.60369
G0 F10500 X68.620 Y19.767
G1 F960 X78.043 Y10.344 E197.00059
G0 F10500 X77.520 Y10.344
G1 F960 X86.056 Y18.881 E197.36014
G0 F10500 X86.056 Y23.545
G1 F960 X81.820 Y27.780 E197.53854
G0 F10500 X80.813 Y27.780
G1 F960 X68.620 Y15.587 E198.05211
G0 F10500 X68.620 Y12.696
G1 F960 X70.972 Y10.344 E198.15118
G0 F10500 X70.449 Y10.344
G1 F960 X86.056 Y25.952 E198.80857
G0 F10500 X86.008 Y20.600
;TYPE:SKIN
G1 F1260 X84.114 Y18.707 E198.88832
G0 F10500 X84.114 Y19.414
G1 F1260 X85.301 Y20.600 E198.93830
G0 F10500 X84.594 Y20.600
G1 F1260 X84.114 Y20.121 E198.95849
G0 F10500 X86.056 Y19.941
G1 F1260 X84.114 Y18.000 E199.04027
G0 F10500 X84.346 Y17.524
G1 F1260 X86.056 Y19.234 E199.11230
G0 F10500 X86.056 Y18.527
G1 F1260 X85.053 Y17.524 E199.15454
G0 F10500 X85.760 Y17.524
G1 F1260 X86.056 Y17.820 E199.16701
G0 F10500 X70.377 Y17.698
G1 F1260 X68.620 Y15.941 E199.24102
G0 F10500 X68.620 Y16.648
G1 F1260 X69.990 Y18.018 E199.29872
G0 F10500 X69.283 Y18.018
G1 F1260 X68.620 Y17.355 E199.32665
G0 F10500 X70.377 Y16.991
G1 F1260 X68.620 Y15.233 E199.40067
G0 F10500 X68.626 Y14.533
G1 F1260 X70.377 Y16.283 E199.47440
G0 F10500 X70.377 Y15.576
G1 F1260 X69.333 Y14.533 E199.51835
G0 F10500 X70.041 Y14.533
G1 F1260 X70.377 Y14.869 E199.53251
G0 F10500 X70.041 Y20.190
G1 F1260 X70.377 Y20.526 E199.54666
G0 F10500 X70.377 Y21.233
G1 F1260 X69.333 Y20.190 E199.59061
G0 F10500 X68.626 Y20.190
G1 F1260 X70.377 Y21.940 E199.66434
G0 F10500 X70.377 Y22.647
G1 F1260 X68.619 Y20.890 E199.73837
G0 F10500 X68.619 Y21.597
G1 F1260 X70.377 Y23.355 E199.81242
G0 F10500 X69.991 Y23.676
G1 F1260 X68.619 Y22.304 E199.87020
G0 F10500 X68.619 Y23.011
G1 F1260 X69.284 Y23.676 E199.89821
;LAYER:17
G0 F10500 X70.303 Y22.841 Z6.885
;TYPE:WALL-INNER
G1 F900 X70.303 Y21.025 E199.95230
G1 X68.446 Y21.024 E200.00761
G1 X68.446 Y17.184 E200.12198
G1 X70.303 Y17.184 E200.17728
G1 X70.303 Y15.368 E200.23137
G1 X68.446 Y15.367 E200.28668
G1 X68.446 Y10.170 E200.44146
G1 X86.232 Y10.170 E200.97119
G1 X86.232 Y17.600 E201.19248
G1 X84.190 Y17.600 E201.25330
G1 X84.190 Y20.526 E201.34044
G1 X86.232 Y20.526 E201.40126
G1 X86.232 Y27.956 E201.62255
G1 X68.446 Y27.956 E202.15228
G1 X68.446 Y22.841 E202.30462
G1 X70.303 Y22.841 E202.35993
G0 F10500 X69.803 Y22.341
;TYPE:WALL-OUTER
G1 F720 X69.803 Y21.525 E202.38423
G1 X67.946 Y21.524 E202.43954
G1 X67.946 Y16.684 E202.58369
G1 X69.803 Y16.684 E202.63900
G1 X69.803 Y15.868 E202.66330
G1 X67.946 Y15.867 E202.71861
G1 X67.946 Y9.670 E202.90318
G1 X86.732 Y9.670 E203.46269
G1 X86.732 Y18.100 E203.71376
G1 X84.690 Y18.100 E203.77458
G1 X84.690 Y20.026 E203.83194
G1 X86.732 Y20.026 E203.89276
G1 X86.732 Y28.456 E204.14384
G1 X67.946 Y28.456 E204.70335
G1 X67.946 Y22.341 E204.88547
G1 X69.803 Y22.341 E204.94078
G0 F10500 X68.978 Y23.016
;TYPE:FILL
G1 F1020 X73.742 Y27.780 E205.14144
G0 F10500 X74.749 Y27.780
G1 F1020 X84.014 Y18.516 E205.53166
G0 F10500 X84.599 Y17.424
G1 F1020 X77.520 Y10.344 E205.82985
G0 F10500 X78.043 Y10.344
G1 F1020 X68.620 Y19.767 E206.22675
G0 F10500 X70.392 Y17.359
G1 F1020 X80.813 Y27.780 E206.66568
G0 F10500 X81.820 Y27.780
G1 F1020 X86.056 Y23.545 E206.84408
G0 F10500 X86.056 Y25.952
G1 F1020 X70.449 Y10.344 E207.50147
G0 F10500 X70.972 Y10.344
G1 F1020 X68.620 Y12.696 E207.60053
G0 F10500 X70.194 Y15.477
G0 X70.194 Y17.075
G0 X70.194 Y22.732
G0 X68.620 Y26.838
G1 F1020 X85.114 Y10.344 E208.29526
G0 F10500 X84.591 Y10.344
G1 F1020 X86.056 Y11.810 E208.35699
G0 F10500 X86.056 Y16.474
G1 F1020 X85.105 Y17.424 E208.39702
G0 F10500 X70.376 Y17.657
;TYPE:SKIN
G1 F1260 X69.635 Y18.398 E208.42824
G0 F10500 X68.928 Y18.398
G1 F1260 X69.968 Y17.358 E208.47204
G0 F10500 X69.261 Y17.358
G1 F1260 X68.620 Y18.000 E208.49906
G0 F10500 X68.933 Y19.808
G1 F1260 X68.620 Y20.121 E208.51224
G0 F10500 X68.620 Y20.828
G1 F1260 X69.639 Y19.809 E208.55516
G0 F10500 X70.345 Y19.810
G1 F1260 X69.306 Y20.849 E208.59893
G0 F10500 X70.013 Y20.849
G1 F1260 X70.376 Y20.486 E208.61422
G0 F10500 X70.194 Y22.732
G0 X69.968 Y23.016
G1 F1260 X68.928 Y24.055 E208.65800
G0 F10500 X68.620 Y23.656
G1 F1260 X69.261 Y23.016 E208.68498
G0 F10500 X69.635 Y24.055
G1 F1260 X70.376 Y23.314 E208.71619
G0 F10500 X70.194 Y15.477
G0 X70.013 Y15.192
G1 F1260 X70.376 Y14.829 E208.73148
G0 F10500 X70.345 Y14.153
G1 F1260 X69.307 Y15.192 E208.77522
G0 F10500 X68.620 Y15.171
G1 F1260 X69.639 Y14.152 E208.81814
G0 F10500 X68.933 Y14.152
G1 F1260 X68.620 Y14.464 E208.83130
;LAYER:18
G0 F10500 X70.303 Y14.988 Z7.265
;TYPE:WALL-INNER
G1 F840 X68.446 Y14.987 E208.88661
G1 X68.446 Y10.170 E209.03008
G1 X86.232 Y10.170 E209.55981
G1 X86.232 Y17.600 E209.78110
G1 X84.190 Y17.600 E209.84191
G1 X84.190 Y20.526 E209.92906
G1 X86.232 Y20.526 E209.98988
G1 X86.232 Y27.956 E210.21117
G1 X68.446 Y27.956 E210.74090
G1 X68.446 Y23.221 E210.88192
G1 X70.303 Y23.221 E210.93723
G1 X70.303 Y20.645 E211.01395
G1 X68.446 Y20.644 E211.06926
G1 X68.446 Y17.564 E211.16099
G1 X70.303 Y17.564 E211.21630
G1 X70.303 Y14.988 E211.29302
G0 F10500 X69.803 Y15.488
;TYPE:WALL-OUTER
G1 F720 X67.946 Y15.488 E211.34833
G1 X67.946 Y9.670 E211.52161
G1 X86.732 Y9.670 E212.08112
G1 X86.732 Y18.100 E212.33219
G1 X84.690 Y18.100 E212.39301
G1 X84.690 Y20.026 E212.45037
G1 X86.732 Y20.026 E212.51119
G1 X86.732 Y28.456 E212.76226
G1 X67.946 Y28.456 E213.32177
G1 X67.946 Y22.721 E213.49258
G1 X69.803 Y22.721 E213.54789
G1 X69.803 Y21.145 E213.59483
G1 X67.946 Y21.145 E213.65014
G1 X67.946 Y17.064 E213.77168
G1 X69.803 Y17.064 E213.82699
G1 X69.803 Y15.488 E213.87393
G0 F10500 X70.153 Y15.488
G0 X70.477 Y17.444
;TYPE:FILL
G1 F960 X80.813 Y27.780 E214.30928
G0 F10500 X81.820 Y27.780
G1 F960 X86.056 Y23.545 E214.48768
G0 F10500 X86.056 Y25.952
G1 F960 X70.449 Y10.344 E215.14507
G0 F10500 X70.972 Y10.344
G1 F960 X68.620 Y12.696 E215.24414
G0 F10500 X70.194 Y15.097
G0 X70.194 Y17.455
G0 X68.620 Y19.767
G1 F960 X78.043 Y10.344 E215.64103
G0 F10500 X77.520 Y10.344
G1 F960 X84.599 Y17.424 E215.93922
G0 F10500 X85.105 Y17.424
G1 F960 X86.056 Y16.474 E215.97926
G0 F10500 X84.299 Y17.709
G0 X84.014 Y18.516
G1 F960 X74.749 Y27.780 E216.36948
G0 F10500 X73.742 Y27.780
G1 F960 X69.357 Y23.396 E216.55415
G0 F10500 X68.620 Y26.838
G1 F960 X85.114 Y10.344 E217.24888
G0 F10500 X84.591 Y10.344
G1 F960 X86.056 Y11.810 E217.31061
G0 F10500 X70.377 Y14.162
;TYPE:SKIN
G1 F1260 X69.988 Y13.773 E217.32699
G0 F10500 X69.280 Y13.773
G1 F1260 X70.320 Y14.812 E217.37078
G0 F10500 X69.613 Y14.812
G1 F1260 X68.620 Y13.819 E217.41260
G0 F10500 X68.620 Y14.526
G1 F1260 X68.906 Y14.812 E217.42465
G0 F10500 X70.194 Y15.097
G0 X70.194 Y17.455
G0 X69.004 Y17.739
G1 F1260 X70.043 Y18.778 E217.46841
G0 F10500 X70.377 Y18.405
G1 F1260 X69.711 Y17.739 E217.49646
G0 F10500 X69.336 Y18.778
G1 F1260 X68.620 Y18.062 E217.52662
G0 F10500 X68.619 Y19.475
G1 F1260 X69.613 Y20.469 E217.56849
G0 F10500 X68.906 Y20.469
G1 F1260 X68.619 Y20.182 E217.58058
G0 F10500 X69.281 Y19.430
G1 F1260 X70.320 Y20.469 E217.62434
G0 F10500 X70.194 Y23.112
G0 X69.711 Y23.396
G1 F1260 X70.377 Y24.062 E217.65239
G0 F10500 X70.044 Y24.436
G1 F1260 X69.004 Y23.396 E217.69620
G0 F10500 X68.619 Y23.718
G1 F1260 X69.337 Y24.436 E217.72644
G0 F10500 X70.194 Y23.112
G0 X70.377 Y19.819
G1 F1260 X69.989 Y19.431 E217.74278
;LAYER:19
G0 F10500 X70.303 Y20.266 Z7.645
;TYPE:WALL-INNER
G1 F840 X68.446 Y20.264 E217.79809
G1 X68.446 Y17.944 E217.86719
G1 X70.303 Y17.944 E217.92250
G1 X70.303 Y14.609 E218.02182
G1 X68.446 Y14.607 E218.07713
G1 X68.446 Y10.170 E218.20928
G1 X86.232 Y10.170 E218.73901
G1 X86.232 Y17.600 E218.96030
G1 X84.190 Y17.600 E219.02111
G1 X84.190 Y20.526 E219.10826
G1 X86.232 Y20.526 E219.16908
G1 X86.232 Y27.956 E219.39037
G1 X68.446 Y27.956 E219.92010
G1 X68.446 Y23.601 E220.04980
G1 X70.303 Y23.601 E220.10511
G1 X70.303 Y20.266 E220.20444
G0 F10500 X69.803 Y20.765
;TYPE:WALL-OUTER
G1 F720 X67.946 Y20.765 E220.25975
G1 X67.946 Y17.444 E220.35866
G1 X69.803 Y17.444 E220.41396
G1 X69.803 Y15.108 E220.48354
G1 X67.946 Y15.108 E220.53885
G1 X67.946 Y9.670 E220.70081
G1 X86.732 Y9.670 E221.26032
G1 X86.732 Y18.100 E221.51139
G1 X84.690 Y18.100 E221.57221
G1 X84.690 Y20.026 E221.62957
G1 X86.732 Y20.026 E221.69039
G1 X86.732 Y28.456 E221.94146
G1 X67.946 Y28.456 E222.50098
G1 X67.946 Y23.101 E222.66047
G1 X69.803 Y23.101 E222.71577
G1 X69.803 Y20.765 E222.78535
G0 F10500 X70.153 Y20.765
G0 X70.194 Y23.492
G0 X69.737 Y23.775
;TYPE:FILL
G1 F960 X73.742 Y27.780 E222.95404
G0 F10500 X74.749 Y27.780
G1 F960 X84.014 Y18.516 E223.34426
G0 F10500 X84.599 Y17.424
G1 F960 X77.520 Y10.344 E223.64245
G0 F10500 X78.043 Y10.344
G1 F960 X70.477 Y17.911 E223.96115
G0 F10500 X70.269 Y18.118
G1 F960 X68.620 Y19.767 E224.03061
G0 F10500 X70.477 Y17.444
G1 F960 X80.813 Y27.780 E224.46596
G0 F10500 X81.820 Y27.780
G1 F960 X86.056 Y23.545 E224.64436
G0 F10500 X86.056 Y25.952
G1 F960 X70.449 Y10.344 E225.30175
G0 F10500 X70.972 Y10.344
G1 F960 X68.620 Y12.696 E225.40081
G0 F10500 X70.194 Y14.717
G0 X70.194 Y17.835
G0 X70.194 Y23.492
G0 X68.620 Y26.838
G1 F960 X85.114 Y10.344 E226.09554
G0 F10500 X84.591 Y10.344
G1 F960 X86.056 Y11.810 E226.15727
G0 F10500 X86.056 Y16.474
G1 F960 X85.105 Y17.424 E226.19730
G0 F10500 X70.376 Y18.364
;TYPE:SKIN
G1 F1260 X69.582 Y19.159 E226.23077
G0 F10500 X69.691 Y19.050
G1 F1260 X68.652 Y20.089 E226.27453
G0 F10500 X69.358 Y20.090
G1 F1260 X70.376 Y19.072 E226.31741
G1 X70.332 Y19.469 E226.32107
G1 X70.065 Y20.091 E226.34123
G0 F10500 X70.194 Y23.492
G0 X69.915 Y23.775
G1 F1260 X68.875 Y24.815 E226.38504
G0 F10500 X68.620 Y24.364
G1 F1260 X69.208 Y23.775 E226.40983
G0 F10500 X69.582 Y24.815
G1 F1260 X70.376 Y24.021 E226.44327
G0 F10500 X70.376 Y24.728
G1 F1260 X70.289 Y24.815 E226.44693
G0 F10500 X70.194 Y20.374
G0 X68.620 Y19.414
G1 F1260 X68.985 Y19.049 E226.46231
G0 F10500 X68.875 Y19.159
G1 F1260 X69.915 Y18.118 E226.50613
G0 F10500 X69.208 Y18.118
G1 F1260 X68.620 Y18.707 E226.53092
G0 F10500 X70.194 Y17.835
G0 X70.194 Y14.717
G0 X68.652 Y14.432
G1 F1260 X69.692 Y13.392 E226.57473
G0 F10500 X70.376 Y13.415
G1 F1260 X69.358 Y14.433 E226.61760
G0 F10500 X70.065 Y14.434
G1 F1260 X70.376 Y14.122 E226.63072
G0 F10500 X68.986 Y13.391
G1 F1260 X68.620 Y13.757 E226.64614
;LAYER:20
G0 F10500 X68.549 Y14.227 Z8.025
;TYPE:WALL-INNER
G1 F840 X68.446 Y14.227 E226.64921
G1 X68.446 Y10.170 E226.77004
G1 X86.232 Y10.170 E227.29977
G1 X86.232 Y17.600 E227.52106
G1 X84.190 Y17.600 E227.58187
G1 X84.190 Y20.526 E227.66902
G1 X86.232 Y20.526 E227.72984
G1 X86.232 Y27.956 E227.95113
G1 X68.446 Y27.956 E228.48086
G1 X68.446 Y23.981 E228.59924
G1 X70.303 Y23.981 E228.65455
G1 X70.303 Y19.886 E228.77652
G1 X68.549 Y19.884 E228.82876
G1 X68.446 Y19.884 E228.83182
G1 X68.446 Y18.324 E228.87829
G1 X70.303 Y18.324 E228.93359
G1 X70.303 Y14.229 E229.05556
G1 X68.549 Y14.227 E229.10780
G0 F10500 X69.803 Y14.728
;TYPE:WALL-OUTER
G1 F720 X67.946 Y14.728 E229.16310
G1 X67.946 Y9.670 E229.31375
G1 X86.732 Y9.670 E229.87326
G1 X86.732 Y18.100 E230.12433
G1 X84.690 Y18.100 E230.18515
G1 X84.690 Y20.026 E230.24251
G1 X86.732 Y20.026 E230.30333
G1 X86.732 Y28.456 E230.55440
G1 X67.946 Y28.456 E231.11392
G1 X67.946 Y23.481 E231.26209
G1 X69.803 Y23.481 E231.31740
G1 X69.803 Y20.385 E231.40960
G1 X67.946 Y20.385 E231.46491
G1 X67.946 Y17.824 E231.54119
G1 X69.803 Y17.824 E231.59650
G1 X69.803 Y14.728 E231.68870
G0 F10500 X70.153 Y14.728
G0 X70.194 Y14.337
G0 X68.620 Y12.696
;TYPE:FILL
G1 F960 X70.972 Y10.344 E231.78777
G0 F10500 X70.449 Y10.344
G1 F960 X86.056 Y25.952 E232.44516
G0 F10500 X86.056 Y23.545
G1 F960 X81.820 Y27.780 E232.62356
G0 F10500 X80.813 Y27.780
G1 F960 X70.477 Y17.444 E233.05891
G0 F10500 X70.477 Y17.911
G1 F960 X78.043 Y10.344 E233.37761
G0 F10500 X77.520 Y10.344
G1 F960 X84.599 Y17.424 E233.67580
G0 F10500 X85.105 Y17.424
G1 F960 X86.056 Y16.474 E233.71584
G0 F10500 X84.299 Y17.709
G0 X84.014 Y18.516
G1 F960 X74.749 Y27.780 E234.10606
G0 F10500 X73.742 Y27.780
G1 F960 X70.118 Y24.156 E234.25870
G0 F10500 X68.620 Y26.838
G1 F960 X85.114 Y10.344 E234.95343
G0 F10500 X84.591 Y10.344
G1 F960 X86.056 Y11.810 E235.01516
G0 F10500 X69.889 Y18.499
G1 F960 X68.679 Y19.709 E235.06612
G0 F10500 X68.852 Y19.708
;TYPE:SKIN
G1 F1260 X68.620 Y19.476 E235.07590
G0 F10500 X68.620 Y18.769
G1 F1260 X69.560 Y19.709 E235.11549
G0 F10500 X70.268 Y19.710
G1 F1260 X69.057 Y18.499 E235.16650
G0 F10500 X69.764 Y18.499
G1 F1260 X70.376 Y19.111 E235.19227
G0 F10500 X70.268 Y14.053
G1 F1260 X69.229 Y13.014 E235.23604
G0 F10500 X68.619 Y13.111
G1 F1260 X69.560 Y14.052 E235.27567
G0 F10500 X68.852 Y14.051
G1 F1260 X68.619 Y13.818 E235.28548
G0 F10500 X69.937 Y13.015
G1 F1260 X70.377 Y13.455 E235.30402
G0 F10500 X70.194 Y23.872
G0 X69.764 Y24.156
G1 F1260 X70.377 Y24.769 E235.32984
G0 F10500 X70.096 Y25.195
G1 F1260 X69.057 Y24.156 E235.37360
G0 F10500 X68.620 Y24.426
G1 F1260 X69.389 Y25.195 E235.40599
;LAYER:21
G0 F10500 X70.303 Y24.361 Z8.405
;TYPE:WALL-INNER
G1 F900 X70.303 Y19.506 E235.55059
G1 X68.798 Y19.504 E235.59541
G1 X68.446 Y19.504 E235.60590
G1 X68.446 Y18.704 E235.62972
G1 X70.303 Y18.704 E235.68503
G1 X70.303 Y13.849 E235.82963
G1 X68.798 Y13.847 E235.87445
G1 X68.446 Y13.847 E235.88494
G1 X68.446 Y10.170 E235.99445
G1 X86.232 Y10.170 E236.52418
G1 X86.232 Y27.956 E237.05390
G1 X68.446 Y27.956 E237.58363
G1 X68.446 Y24.361 E237.69070
G1 X70.303 Y24.361 E237.74601
G0 F10500 X69.803 Y23.861
;TYPE:WALL-OUTER
G1 F720 X69.803 Y20.005 E237.86086
G1 X67.946 Y20.005 E237.91616
G1 X67.946 Y18.204 E237.96980
G1 X69.803 Y18.204 E238.02511
G1 X69.803 Y14.348 E238.13996
G1 X67.946 Y14.348 E238.19526
G1 X67.946 Y9.670 E238.33459
G1 X86.732 Y9.670 E238.89410
G1 X86.732 Y28.456 E239.45361
G1 X67.946 Y28.456 E240.01312
G1 X67.946 Y23.861 E240.14998
G1 X69.803 Y23.861 E240.20528
G0 F10500 X70.477 Y24.515
;TYPE:FILL
G1 F1020 X73.742 Y27.780 E240.34281
G0 F10500 X74.749 Y27.780
G1 F1020 X83.930 Y18.600 E240.72949
G0 F10500 X84.712 Y17.818
G1 F1020 X86.056 Y16.474 E240.78610
G0 F10500 X84.992 Y17.817
G1 F1020 X77.520 Y10.344 E241.10084
G0 F10500 X78.043 Y10.344
G1 F1020 X70.477 Y17.911 E241.41954
G0 F10500 X70.477 Y17.444
G1 F1020 X80.813 Y27.780 E241.85490
G0 F10500 X81.820 Y27.780
G1 F1020 X86.056 Y23.545 E242.03329
G0 F10500 X86.056 Y25.952
G1 F1020 X70.449 Y10.344 E242.69068
G0 F10500 X70.972 Y10.344
G1 F1020 X68.620 Y12.696 E242.78975
G0 F10500 X70.194 Y13.958
G0 X70.194 Y18.595
G0 X69.510 Y18.878
G1 F1020 X69.058 Y19.330 E242.80879
G0 F10500 X70.194 Y19.615
G0 X70.194 Y24.252
G0 X68.620 Y26.838
G1 F1020 X85.114 Y10.344 E243.50352
G0 F10500 X84.591 Y10.344
G1 F1020 X86.056 Y11.810 E243.56524
G0 F10500 X85.715 Y17.168
;TYPE:SKIN
G1 F1260 X83.280 Y19.603 E243.66781
G0 F10500 X83.280 Y20.310
G1 F1260 X86.056 Y17.534 E243.78473
G0 F10500 X86.056 Y18.241
G1 F1260 X83.339 Y20.958 E243.89917
G0 F10500 X84.046 Y20.958
G1 F1260 X86.056 Y18.949 E243.98381
G0 F10500 X86.056 Y19.656
G1 F1260 X84.753 Y20.958 E244.03867
G0 F10500 X85.460 Y20.958
G1 F1260 X86.056 Y20.363 E244.06376
G0 F10500 X83.280 Y18.896
G1 F1260 X85.008 Y17.168 E244.13654
G0 F10500 X84.301 Y17.168
G1 F1260 X83.280 Y18.188 E244.17952
G0 F10500 X83.280 Y17.481
G1 F1260 X83.594 Y17.168 E244.19273
G0 F10500 X70.376 Y19.072
G1 F1260 X69.990 Y19.104 E244.20357
G1 X69.283 Y19.104 E244.22252
G1 X68.704 Y19.330 E244.24103
G0 F10500 X70.194 Y18.595
G0 X70.194 Y13.958
G0 X68.705 Y13.672
G1 F1260 X69.744 Y12.633 E244.28480
G0 F10500 X70.376 Y12.708
G1 F1260 X69.411 Y13.673 E244.32544
G0 F10500 X70.118 Y13.674
G1 F1260 X70.376 Y13.415 E244.33633
G0 F10500 X69.037 Y12.633
G1 F1260 X68.620 Y13.050 E244.35389
G0 F10500 X86.341 Y10.061
G0 X68.337 Y28.065
G0 X69.155 Y24.535
G1 F1260 X68.620 Y25.071 E244.37645
G0 F10500 X68.822 Y25.576
G1 F1260 X69.862 Y24.535 E244.42028
G0 F10500 X70.376 Y24.728
G1 F1260 X69.529 Y25.576 E244.45597
G0 F10500 X70.236 Y25.576
G1 F1260 X70.376 Y25.436 E244.46187
;LAYER:22
G0 F10500 X70.303 Y24.741 Z8.785
;TYPE:WALL-INNER
G1 F900 X70.303 Y19.126 E244.62910
G1 X69.048 Y19.124 E244.66648
G1 X68.446 Y19.124 E244.68441
G1 X68.446 Y19.084 E244.68560
G1 X70.303 Y19.084 E244.74091
G1 X70.303 Y13.469 E244.90814
G1 X69.048 Y13.467 E244.94552
G1 X68.446 Y13.467 E244.96345
G1 X68.446 Y10.170 E245.06165
G1 X86.232 Y10.170 E245.59137
G1 X86.232 Y27.956 E246.12110
G1 X68.446 Y27.956 E246.65083
G1 X68.446 Y24.741 E246.74658
G1 X70.303 Y24.741 E246.80189
G0 F10500 X69.803 Y24.241
;TYPE:WALL-OUTER
G1 F780 X69.803 Y19.625 E246.93937
G1 X67.946 Y19.625 E246.99468
G1 X67.946 Y18.584 E247.02568
G1 X69.803 Y18.584 E247.08099
G1 X69.803 Y13.968 E247.21847
G1 X67.946 Y13.968 E247.27378
G1 X67.946 Y9.670 E247.40179
G1 X86.732 Y9.670 E247.96130
G1 X86.732 Y28.456 E248.52081
G1 X67.946 Y28.456 E249.08032
G1 X67.946 Y24.241 E249.20586
G1 X69.803 Y24.241 E249.26116
G0 F10500 X70.477 Y24.515
;TYPE:FILL
G1 F1080 X73.742 Y27.780 E249.39869
G0 F10500 X74.749 Y27.780
G1 F1080 X83.930 Y18.600 E249.78537
G0 F10500 X84.712 Y17.818
G1 F1080 X86.056 Y16.474 E249.84198
G0 F10500 X84.992 Y17.817
G1 F1080 X77.520 Y10.344 E250.15672
G0 F10500 X78.043 Y10.344
G1 F1080 X70.477 Y17.911 E250.47542
G0 F10500 X70.477 Y17.444
G1 F1080 X80.813 Y27.780 E250.91077
G0 F10500 X81.820 Y27.780
G1 F1080 X86.056 Y23.545 E251.08917
G0 F10500 X86.056 Y25.952
G1 F1080 X70.449 Y10.344 E251.74656
G0 F10500 X70.972 Y10.344
G1 F1080 X68.620 Y12.696 E251.84563
G0 F10500 X86.341 Y10.061
G0 X68.337 Y28.065
G0 X68.620 Y26.838
G1 F1080 X85.114 Y10.344 E252.54036
G0 F10500 X84.591 Y10.344
G1 F1080 X86.056 Y11.810 E252.60208
G0 F10500 X85.717 Y12.532
;TYPE:SKIN
G1 F1320 X86.056 Y12.870 E252.61634
G0 F10500 X86.056 Y13.577
G1 F1320 X85.010 Y12.532 E252.66038
G0 F10500 X84.303 Y12.532
G1 F1320 X86.056 Y14.284 E252.73419
G0 F10500 X86.056 Y14.992
G1 F1320 X84.113 Y13.049 E252.81603
G0 F10500 X84.113 Y13.756
G1 F1320 X86.056 Y15.699 E252.89787
G0 F10500 X86.056 Y16.406
G1 F1320 X84.113 Y14.463 E252.97971
G0 F10500 X84.113 Y15.170
G1 F1320 X86.056 Y17.113 E253.06155
G0 F10500 X86.056 Y17.820
G1 F1320 X84.113 Y15.878 E253.14337
G0 F10500 X84.113 Y16.585
G1 F1320 X86.056 Y18.527 E253.22519
G0 F10500 X86.056 Y19.234
G1 F1320 X83.990 Y17.168 E253.31221
G0 F10500 X83.283 Y17.168
G1 F1320 X86.056 Y19.941 E253.42901
G0 F10500 X86.056 Y20.648
G1 F1320 X83.280 Y17.872 E253.54593
G0 F10500 X83.280 Y18.579
G1 F1320 X86.056 Y21.356 E253.66288
G0 F10500 X86.056 Y22.063
G1 F1320 X83.280 Y19.287 E253.77980
G0 F10500 X83.280 Y19.994
G1 F1320 X86.056 Y22.770 E253.89673
G0 F10500 X86.056 Y23.477
G1 F1320 X84.113 Y21.534 E253.97857
G0 F10500 X84.113 Y22.242
G1 F1320 X86.056 Y24.184 E254.06039
G0 F10500 X86.056 Y24.891
G1 F1320 X84.113 Y22.949 E254.14220
G0 F10500 X84.113 Y23.656
G1 F1320 X86.051 Y25.593 E254.22381
G0 F10500 X85.344 Y25.593
G1 F1320 X84.113 Y24.363 E254.27564
G0 F10500 X84.113 Y25.070
G1 F1320 X84.637 Y25.593 E254.29769
G0 F10500 X83.536 Y20.957
G1 F1320 X83.280 Y20.701 E254.30847
;LAYER:23
G0 F10500 X86.232 Y27.956 Z9.165
;TYPE:WALL-INNER
G1 F900 X68.446 Y27.956 E254.83820
G1 X68.446 Y25.121 E254.92264
G1 X70.303 Y25.121 E254.97794
G1 X70.303 Y13.091 E255.33624
G1 X69.298 Y13.087 E255.36617
G1 X68.446 Y13.088 E255.39155
G1 X68.446 Y10.170 E255.47845
G1 X86.232 Y10.170 E256.00818
G1 X86.232 Y27.956 E256.53791
G0 F10500 X86.732 Y28.456
;TYPE:WALL-OUTER
G1 F780 X67.946 Y28.456 E257.09742
G1 X67.946 Y24.621 E257.21164
G1 X69.803 Y24.621 E257.26695
G1 X69.803 Y19.246 E257.42703
G1 X69.297 Y19.244 E257.44210
G1 X67.946 Y19.245 E257.48234
G1 X67.946 Y18.964 E257.49071
G1 X69.803 Y18.964 E257.54602
G1 X69.803 Y13.589 E257.70610
G1 X69.297 Y13.587 E257.72117
G1 X67.946 Y13.588 E257.76141
G1 X67.946 Y9.670 E257.87810
G1 X86.732 Y9.670 E258.43761
G1 X86.732 Y28.456 E258.99712
G0 F10500 X86.382 Y28.196
G0 X86.056 Y25.952
;TYPE:FILL
G1 F1080 X70.449 Y10.344 E259.65451
G0 F10500 X70.972 Y10.344
G1 F1080 X68.620 Y12.696 E259.75358
G0 F10500 X70.194 Y13.199
G0 X70.477 Y17.444
G1 F1080 X80.813 Y27.780 E260.18893
G0 F10500 X81.820 Y27.780
G1 F1080 X86.056 Y23.545 E260.36733
G0 F10500 X83.930 Y18.600
G1 F1080 X74.749 Y27.780 E260.75401
G0 F10500 X73.742 Y27.780
G1 F1080 X70.477 Y24.515 E260.89154
G0 F10500 X70.477 Y24.982
G1 F1080 X85.114 Y10.344 E261.50807
G0 F10500 X84.591 Y10.344
G1 F1080 X86.056 Y11.810 E261.56980
G0 F10500 X86.056 Y16.474
G1 F1080 X84.712 Y17.818 E261.62640
G0 F10500 X84.992 Y17.817
G1 F1080 X77.520 Y10.344 E261.94115
G0 F10500 X78.043 Y10.344
G1 F1080 X70.477 Y17.911 E262.25985
G0 F10500 X70.163 Y25.296
G1 F1080 X68.620 Y26.838 E262.32482
G0 F10500 X84.113 Y25.134
;TYPE:SKIN
G1 F1320 X86.056 Y23.191 E262.40666
G0 F10500 X86.056 Y23.898
G1 F1320 X84.360 Y25.594 E262.47809
G0 F10500 X85.067 Y25.594
G1 F1320 X86.056 Y24.605 E262.51975
G0 F10500 X86.056 Y25.313
G1 F1320 X85.774 Y25.594 E262.53161
G0 F10500 X84.113 Y24.427
G1 F1320 X86.056 Y22.484 E262.61345
G0 F10500 X86.056 Y21.777
G1 F1320 X84.113 Y23.719 E262.69526
G0 F10500 X84.113 Y23.012
G1 F1320 X86.056 Y21.070 E262.77708
G0 F10500 X86.056 Y20.363
G1 F1320 X84.113 Y22.305 E262.85890
G0 F10500 X84.113 Y21.598
G1 F1320 X86.056 Y19.656 E262.94072
G0 F10500 X86.056 Y18.949
G1 F1320 X84.047 Y20.957 E263.02532
G0 F10500 X83.340 Y20.957
G1 F1320 X86.056 Y18.241 E263.13972
G0 F10500 X86.056 Y17.534
G1 F1320 X83.280 Y20.310 E263.25664
G0 F10500 X83.280 Y19.603
G1 F1320 X86.056 Y16.827 E263.37357
G0 F10500 X86.056 Y16.120
G1 F1320 X83.280 Y18.896 E263.49049
G0 F10500 X83.280 Y18.188
G1 F1320 X86.056 Y15.413 E263.60740
G0 F10500 X86.056 Y14.706
G1 F1320 X84.113 Y16.648 E263.68921
G0 F10500 X84.113 Y15.941
G1 F1320 X86.056 Y13.999 E263.77103
G0 F10500 X86.056 Y13.292
G1 F1320 X84.113 Y15.234 E263.85285
G0 F10500 X84.113 Y14.527
G1 F1320 X86.056 Y12.585 E263.93467
G0 F10500 X85.402 Y12.531
G1 F1320 X84.113 Y13.820 E263.98896
G0 F10500 X84.113 Y13.113
G1 F1320 X84.695 Y12.531 E264.01347
G0 F10500 X83.594 Y17.167
G1 F1320 X83.280 Y17.481 E264.02670
;LAYER:24
G0 F10500 X83.356 Y17.243 Z9.545
;TYPE:WALL-INNER
G1 F900 X83.356 Y20.883 E264.13511
G1 X86.232 Y20.883 E264.22077
G1 X86.232 Y27.956 E264.43143
G1 X68.446 Y27.956 E264.96115
G1 X68.446 Y25.501 E265.03427
G1 X70.303 Y25.501 E265.08958
G1 X70.303 Y18.365 E265.30211
G1 X70.303 Y16.277 E265.36430
G1 X70.303 Y12.708 E265.47060
G1 X68.446 Y12.708 E265.52591
G1 X68.446 Y10.170 E265.60150
G1 X86.232 Y10.170 E266.13122
G1 X86.232 Y17.243 E266.34188
G1 X83.356 Y17.243 E266.42754
G0 F10500 X83.856 Y17.743
;TYPE:WALL-OUTER
G1 F720 X83.856 Y20.383 E266.50617
G1 X86.732 Y20.383 E266.59182
G1 X86.732 Y28.456 E266.83227
G1 X67.946 Y28.456 E267.39178
G1 X67.946 Y25.001 E267.49468
G1 X69.803 Y25.001 E267.54999
G1 X69.803 Y18.865 E267.73274
G1 X69.804 Y13.208 E267.90122
G1 X67.946 Y13.208 E267.95656
G1 X67.946 Y9.670 E268.06193
G1 X86.732 Y9.670 E268.62144
G1 X86.732 Y17.743 E268.86188
G1 X83.856 Y17.743 E268.94754
G0 F10500 X84.243 Y17.068
;TYPE:FILL
G1 F1020 X77.520 Y10.344 E269.23073
G0 F10500 X78.043 Y10.344
G1 F1020 X70.477 Y17.911 E269.54944
G0 F10500 X70.477 Y17.444
G1 F1020 X80.813 Y27.780 E269.98479
G0 F10500 X81.820 Y27.780
G1 F1020 X86.056 Y23.545 E270.16319
G0 F10500 X86.056 Y25.952
G1 F1020 X70.449 Y10.344 E270.82058
G0 F10500 X70.972 Y10.344
G1 F1020 X68.784 Y12.532 E270.91274
G0 F10500 X70.194 Y12.817
G0 X70.477 Y24.515
G1 F1020 X73.742 Y27.780 E271.05026
G0 F10500 X74.749 Y27.780
G1 F1020 X83.179 Y19.350 E271.40533
G0 F10500 X83.465 Y17.352
G0 X85.462 Y17.068
G1 F1020 X86.056 Y16.474 E271.43035
G0 F10500 X86.056 Y11.810
G1 F1020 X84.591 Y10.344 E271.49208
G0 F10500 X85.114 Y10.344
G1 F1020 X70.477 Y24.982 E272.10861
G0 F10500 X69.782 Y25.676
G1 F1020 X68.620 Y26.838 E272.15755
G0 F10500 X84.113 Y25.070
;TYPE:SKIN
G1 F1260 X84.637 Y25.593 E272.17960
G0 F10500 X85.344 Y25.593
G1 F1260 X84.113 Y24.363 E272.23143
G0 F10500 X84.113 Y23.656
G1 F1260 X86.051 Y25.593 E272.31304
G0 F10500 X86.056 Y24.891
G1 F1260 X84.113 Y22.949 E272.39486
G0 F10500 X84.113 Y22.242
G1 F1260 X86.056 Y24.184 E272.47668
G0 F10500 X86.056 Y23.477
G1 F1260 X84.113 Y21.534 E272.55851
G0 F10500 X84.343 Y21.057
G1 F1260 X86.056 Y22.770 E272.63067
G0 F10500 X86.056 Y22.063
G1 F1260 X85.050 Y21.057 E272.67304
G0 F10500 X85.757 Y21.057
G1 F1260 X86.056 Y21.356 E272.68563
G0 F10500 X83.465 Y20.774
G0 X83.465 Y17.352
G0 X86.011 Y17.068
G1 F1260 X84.113 Y15.170 E272.76558
G0 F10500 X84.113 Y14.463
G1 F1260 X86.056 Y16.406 E272.84742
G0 F10500 X86.056 Y15.699
G1 F1260 X84.113 Y13.756 E272.92926
G0 F10500 X84.113 Y13.049
G1 F1260 X86.056 Y14.992 E273.01109
G0 F10500 X86.056 Y14.284
G1 F1260 X84.303 Y12.532 E273.08491
G0 F10500 X85.010 Y12.532
G1 F1260 X86.056 Y13.577 E273.12895
G0 F10500 X86.056 Y12.870
G1 F1260 X85.717 Y12.532 E273.14320
G0 F10500 X84.113 Y15.878
G1 F1260 X85.303 Y17.068 E273.19333
G0 F10500 X84.596 Y17.068
G1 F1260 X84.113 Y16.585 E273.21367
;LAYER:25
G0 F10500 X83.356 Y17.243 Z9.925
;TYPE:WALL-INNER
G1 F840 X83.356 Y20.883 E273.32208
G1 X84.190 Y20.883 E273.34692
G1 X84.190 Y25.519 E273.48500
G1 X86.232 Y25.519 E273.54582
G1 X86.232 Y27.956 E273.61840
G1 X68.446 Y27.956 E274.14812
G1 X68.446 Y25.141 E274.23196
G1 X70.303 Y25.141 E274.28727
G1 X70.303 Y13.071 E274.64676
G1 X69.312 Y13.067 E274.67627
G1 X68.446 Y13.068 E274.70207
G1 X68.446 Y10.170 E274.78838
G1 X86.232 Y10.170 E275.31811
G1 X86.232 Y12.607 E275.39069
G1 X84.190 Y12.607 E275.45151
G1 X84.190 Y17.243 E275.58958
G1 X83.356 Y17.243 E275.61442
G0 F10500 X83.856 Y17.743
;TYPE:WALL-OUTER
G1 F720 X83.856 Y20.383 E275.69305
G1 X86.732 Y20.383 E275.77871
G1 X86.732 Y20.953 E275.79568
G1 X84.690 Y20.953 E275.85650
G1 X84.690 Y22.879 E275.91386
G1 X86.732 Y22.879 E275.97468
G1 X86.732 Y23.093 E275.98105
G1 X84.690 Y23.093 E276.04187
G1 X84.690 Y25.019 E276.09923
G1 X86.732 Y25.019 E276.16005
G1 X86.732 Y28.456 E276.26242
G1 X67.946 Y28.456 E276.82193
G1 X67.946 Y24.641 E276.93555
G1 X69.803 Y24.641 E276.99086
G1 X69.803 Y13.569 E277.32062
G1 X69.311 Y13.567 E277.33527
G1 X67.946 Y13.568 E277.37593
G1 X67.946 Y9.670 E277.49202
G1 X86.732 Y9.670 E278.05153
G1 X86.732 Y13.107 E278.15390
G1 X84.690 Y13.107 E278.21472
G1 X84.690 Y15.034 E278.27211
G1 X86.732 Y15.034 E278.33293
G1 X86.732 Y15.247 E278.33927
G1 X84.690 Y15.247 E278.40009
G1 X84.690 Y17.173 E278.45745
G1 X86.732 Y17.173 E278.51827
G1 X86.732 Y17.743 E278.53525
G1 X83.856 Y17.743 E278.62090
G0 F10500 X84.014 Y16.839
;TYPE:FILL
G1 F960 X77.520 Y10.344 E278.89445
G0 F10500 X78.043 Y10.344
G1 F960 X70.477 Y17.911 E279.21315
G0 F10500 X70.477 Y17.444
G1 F960 X80.813 Y27.780 E279.64851
G0 F10500 X81.820 Y27.780
G1 F960 X84.014 Y25.587 E279.74090
G0 F10500 X84.014 Y23.910
G1 F960 X70.449 Y10.344 E280.31228
G0 F10500 X70.972 Y10.344
G1 F960 X68.620 Y12.696 E280.41134
G0 F10500 X70.194 Y13.179
G0 X70.477 Y24.515
G1 F960 X73.742 Y27.780 E280.54887
G0 F10500 X74.749 Y27.780
G1 F960 X83.179 Y19.350 E280.90394
G1 F600 E279.40394
G1 Z10.025
G0 F10500 X86.056 Y11.810
G1 Z9.925
G1 F600 E280.90394
G1 F960 X84.591 Y10.344 E280.96566
G0 F10500 X85.114 Y10.344
G1 F960 X70.477 Y24.982 E281.58220
G0 F10500 X70.143 Y25.315
G1 F960 X68.620 Y26.838 E281.64635
G0 F10500 X85.797 Y25.693
G1 F960 X86.056 Y25.952 E281.65725
;LAYER:26
G0 F10500 X84.190 Y25.519 Z10.305
;TYPE:WALL-INNER
G1 F840 X86.232 Y25.519 E281.71807
G1 X86.232 Y27.956 E281.79065
G1 X68.446 Y27.956 E282.32038
G1 X68.446 Y24.761 E282.41554
G1 X70.303 Y24.761 E282.47085
G1 X70.303 Y13.450 E282.80773
G1 X69.061 Y13.447 E282.84472
G1 X68.446 Y13.447 E282.86304
G1 X68.446 Y10.170 E282.96064
G1 X86.232 Y10.170 E283.49036
G1 X86.232 Y12.607 E283.56294
G1 X84.190 Y12.607 E283.62376
G1 X84.190 Y17.243 E283.76184
G1 X83.356 Y17.243 E283.78668
G1 X83.356 Y20.883 E283.89509
G1 X84.190 Y20.883 E283.91993
G1 X84.190 Y25.519 E284.05800
G0 F10500 X84.690 Y25.019
;TYPE:WALL-OUTER
G1 F720 X86.732 Y25.019 E284.11882
G1 X86.732 Y28.456 E284.22119
G1 X67.946 Y28.456 E284.78070
G1 X67.946 Y24.261 E284.90564
G1 X69.803 Y24.261 E284.96095
G1 X69.803 Y13.949 E285.26807
G1 X67.946 Y13.948 E285.32338
G1 X67.946 Y9.670 E285.45079
G1 X86.732 Y9.670 E286.01030
G1 X86.732 Y13.107 E286.11267
G1 X84.690 Y13.107 E286.17349
G1 X84.690 Y15.034 E286.23088
G1 X86.732 Y15.034 E286.29170
G1 X86.732 Y15.247 E286.29804
G1 X84.690 Y15.247 E286.35886
G1 X84.690 Y17.173 E286.41622
G1 X86.732 Y17.173 E286.47704
G1 X86.732 Y17.743 E286.49402
G1 X83.856 Y17.743 E286.57967
G1 X83.856 Y20.383 E286.65830
G1 X86.732 Y20.383 E286.74396
G1 X86.732 Y20.953 E286.76094
G1 X84.690 Y20.953 E286.82175
G1 X84.690 Y22.879 E286.87912
G1 X86.732 Y22.879 E286.93993
G1 X86.732 Y23.093 E286.94631
G1 X84.690 Y23.093 E287.00712
G1 X84.690 Y25.019 E287.06449
G0 F10500 X84.014 Y25.587
;TYPE:FILL
G1 F960 X81.820 Y27.780 E287.15688
G0 F10500 X80.813 Y27.780
G1 F960 X70.477 Y17.444 E287.59223
G0 F10500 X70.477 Y17.911
G1 F960 X78.043 Y10.344 E287.91093
G0 F10500 X77.520 Y10.344
G1 F960 X84.014 Y16.839 E288.18448
G0 F10500 X83.465 Y17.352
G0 X83.179 Y19.350
G1 F960 X74.749 Y27.780 E288.53955
G0 F10500 X73.742 Y27.780
G1 F960 X70.477 Y24.515 E288.67708
G0 F10500 X68.620 Y26.838
G1 F960 X85.114 Y10.344 E289.37180
G0 F10500 X84.591 Y10.344
G1 F960 X86.056 Y11.810 E289.43353
G1 F600 E287.93353
G1 Z10.405
G0 F10500 X84.014 Y23.910
G1 Z10.305
G1 F600 E289.43353
G1 F960 X70.449 Y10.344 E290.00491
G0 F10500 X70.972 Y10.344
G1 F960 X68.620 Y12.696 E290.10398
G0 F10500 X70.194 Y13.558
G0 X70.194 Y24.652
G0 X85.797 Y25.693
G1 F960 X86.056 Y25.952 E290.11489
;LAYER:27
G0 F10500 X84.190 Y25.519 Z10.685
;TYPE:WALL-INNER
G1 F840 X86.232 Y25.519 E290.17570
G1 X86.232 Y27.956 E290.24829
G1 X68.446 Y27.956 E290.77801
G1 X68.446 Y24.381 E290.88449
G1 X70.303 Y24.381 E290.93980
G1 X70.303 Y13.829 E291.25407
G1 X68.811 Y13.827 E291.29851
G1 X68.446 Y13.827 E291.30938
G1 X68.446 Y10.170 E291.41830
G1 X86.232 Y10.170 E291.94802
G1 X86.232 Y12.607 E292.02060
G1 X84.190 Y12.607 E292.08142
G1 X84.190 Y17.243 E292.21950
G1 X83.356 Y17.243 E292.24434
G1 X83.356 Y20.883 E292.35275
G1 X84.190 Y20.883 E292.37759
G1 X84.190 Y25.519 E292.51566
G0 F10500 X84.690 Y25.019
;TYPE:WALL-OUTER
G1 F720 X86.732 Y25.019 E292.57648
G1 X86.732 Y28.456 E292.67885
G1 X67.946 Y28.456 E293.23836
G1 X67.946 Y23.881 E293.37462
G1 X69.803 Y23.881 E293.42992
G1 X69.803 Y14.328 E293.71445
G1 X67.946 Y14.328 E293.76975
G1 X67.946 Y9.670 E293.90848
G1 X86.732 Y9.670 E294.46799
G1 X86.732 Y13.107 E294.57036
G1 X84.690 Y13.107 E294.63118
G1 X84.690 Y15.034 E294.68857
G1 X86.732 Y15.034 E294.74939
G1 X86.732 Y15.247 E294.75573
G1 X84.690 Y15.247 E294.81655
G1 X84.690 Y17.173 E294.87391
G1 X86.732 Y17.173 E294.93473
G1 X86.732 Y17.743 E294.95171
G1 X83.856 Y17.743 E295.03736
G1 X83.856 Y20.383 E295.11599
G1 X86.732 Y20.383 E295.20165
G1 X86.732 Y20.953 E295.21863
G1 X84.690 Y20.953 E295.27944
G1 X84.690 Y22.879 E295.33681
G1 X86.732 Y22.879 E295.39762
G1 X86.732 Y23.093 E295.40400
G1 X84.690 Y23.093 E295.46481
G1 X84.690 Y25.019 E295.52218
G0 F10500 X84.014 Y25.587
;TYPE:FILL
G1 F960 X81.820 Y27.780 E295.61457
G0 F10500 X80.813 Y27.780
G1 F960 X70.477 Y17.444 E296.04992
G0 F10500 X70.477 Y17.911
G1 F960 X78.043 Y10.344 E296.36862
G0 F10500 X77.520 Y10.344
G1 F960 X84.014 Y16.839 E296.64217
G0 F10500 X83.465 Y17.352
G0 X83.179 Y19.350
G1 F960 X74.749 Y27.780 E296.99724
G0 F10500 X73.742 Y27.780
G1 F960 X70.477 Y24.515 E297.13477
G0 F10500 X68.620 Y26.838
G1 F960 X85.114 Y10.344 E297.82949
G0 F10500 X84.591 Y10.344
G1 F960 X86.056 Y11.810 E297.89122
G1 F600 E296.39122
G1 Z10.785
G0 F10500 X84.014 Y23.910
G1 Z10.685
G1 F600 E297.89122
G1 F960 X70.449 Y10.344 E298.46260
G0 F10500 X70.972 Y10.344
G1 F960 X68.620 Y12.696 E298.56167
G0 F10500 X84.299 Y25.410
G0 X85.797 Y25.693
G1 F960 X86.056 Y25.952 E298.57258
G0 F10500 X70.376 Y25.436
;TYPE:SKIN
G1 F1260 X70.236 Y25.576 E298.57847
G0 F10500 X69.529 Y25.576
G1 F1260 X70.376 Y24.728 E298.61417
G0 F10500 X69.843 Y24.555
G1 F1260 X68.822 Y25.576 E298.65717
G0 F10500 X68.620 Y25.071
G1 F1260 X69.135 Y24.555 E298.67889
G0 F10500 X70.194 Y24.272
G0 X70.194 Y13.938
G0 X69.431 Y13.653
G1 F1260 X70.376 Y12.708 E298.71869
G0 F10500 X69.744 Y12.633
G1 F1260 X68.725 Y13.652 E298.76161
G0 F10500 X68.620 Y13.050
G1 F1260 X69.037 Y12.633 E298.77917
G0 F10500 X70.137 Y13.654
G1 F1260 X70.376 Y13.415 E298.78924
;LAYER:28
G0 F10500 X70.303 Y14.209 Z11.065
;TYPE:WALL-INNER
G1 F900 X68.562 Y14.207 E298.84109
G1 X68.446 Y14.207 E298.84455
G1 X68.446 Y10.170 E298.96478
G1 X86.232 Y10.170 E299.49451
G1 X86.232 Y17.243 E299.70517
G1 X83.356 Y17.243 E299.79083
G1 X83.356 Y20.883 E299.89924
G1 X86.232 Y20.883 E299.98489
G1 X86.232 Y27.956 E300.19555
G1 X68.446 Y27.956 E300.72528
G1 X68.446 Y24.001 E300.84307
G1 X70.303 Y24.001 E300.89838
G1 X70.303 Y14.209 E301.19002
G0 F10500 X69.803 Y14.708
;TYPE:WALL-OUTER
G1 F780 X67.946 Y14.708 E301.24533
G1 X67.946 Y9.670 E301.39538
G1 X86.732 Y9.670 E301.95489
G1 X86.732 Y17.743 E302.19533
G1 X83.856 Y17.743 E302.28099
G1 X83.856 Y20.383 E302.35961
G1 X86.732 Y20.383 E302.44527
G1 X86.732 Y28.456 E302.68571
G1 X67.946 Y28.456 E303.24522
G1 X67.946 Y23.501 E303.39280
G1 X69.803 Y23.501 E303.44811
G1 X69.803 Y14.708 E303.70999
G0 F10500 X69.804 Y14.359
G0 X68.620 Y12.696
;TYPE:FILL
G1 F1020 X70.972 Y10.344 E303.80906
G0 F10500 X70.449 Y10.344
G1 F1020 X86.056 Y25.952 E304.46645
G0 F10500 X86.056 Y23.545
G1 F1020 X81.820 Y27.780 E304.64485
G0 F10500 X80.813 Y27.780
G1 F1020 X70.477 Y17.444 E305.08020
G0 F10500 X70.477 Y17.911
G1 F1020 X78.043 Y10.344 E305.39890
G0 F10500 X77.520 Y10.344
G1 F1020 X84.243 Y17.068 E305.68210
G0 F10500 X85.462 Y17.068
G1 F1020 X86.056 Y16.474 E305.70711
G0 F10500 X83.465 Y17.352
G0 X83.179 Y19.350
G1 F1020 X74.749 Y27.780 E306.06219
G0 F10500 X73.742 Y27.780
G1 F1020 X70.137 Y24.175 E306.21403
G0 F10500 X68.620 Y26.838
G1 F1020 X85.114 Y10.344 E306.90876
G0 F10500 X84.591 Y10.344
G1 F1020 X86.056 Y11.810 E306.97048
G0 F10500 X85.717 Y12.532
;TYPE:SKIN
G1 F1320 X86.056 Y12.870 E306.98474
G0 F10500 X86.056 Y13.577
G1 F1320 X85.010 Y12.532 E307.02878
G0 F10500 X84.303 Y12.532
G1 F1320 X86.056 Y14.284 E307.10259
G0 F10500 X86.056 Y14.992
G1 F1320 X84.113 Y13.049 E307.18443
G0 F10500 X84.113 Y13.756
G1 F1320 X86.056 Y15.699 E307.26627
G0 F10500 X86.056 Y16.406
G1 F1320 X84.113 Y14.463 E307.34811
G0 F10500 X84.113 Y15.170
G1 F1320 X86.011 Y17.068 E307.42806
G0 F10500 X85.303 Y17.068
G1 F1320 X84.113 Y15.878 E307.47818
G0 F10500 X84.113 Y16.585
G1 F1320 X84.596 Y17.068 E307.49852
G0 F10500 X83.465 Y17.352
G0 X83.465 Y20.774
G0 X84.343 Y21.057
G1 F1320 X86.056 Y22.770 E307.57067
G0 F10500 X86.056 Y23.477
G1 F1320 X84.113 Y21.534 E307.65251
G0 F10500 X84.113 Y22.242
G1 F1320 X86.056 Y24.184 E307.73433
G0 F10500 X86.056 Y24.891
G1 F1320 X84.113 Y22.949 E307.81615
G0 F10500 X84.113 Y23.656
G1 F1320 X86.051 Y25.593 E307.89776
G0 F10500 X85.344 Y25.593
G1 F1320 X84.113 Y24.363 E307.94959
G0 F10500 X84.113 Y25.070
G1 F1320 X84.637 Y25.593 E307.97164
G0 F10500 X86.056 Y22.063
G1 F1320 X85.050 Y21.057 E308.01401
G0 F10500 X85.757 Y21.057
G1 F1320 X86.056 Y21.356 E308.02660
G0 F10500 X70.377 Y24.769
G1 F1320 X69.784 Y24.175 E308.05160
G0 F10500 X69.077 Y24.175
G1 F1320 X70.117 Y25.216 E308.09543
G0 F10500 X69.410 Y25.216
G1 F1320 X68.619 Y24.425 E308.12874
G0 F10500 X68.619 Y25.132
G1 F1320 X68.703 Y25.216 E308.13228
G0 F10500 X70.194 Y23.892
G0 X70.194 Y14.318
G0 X68.832 Y14.031
G1 F1320 X68.619 Y13.818 E308.14125
G0 F10500 X68.619 Y13.111
G1 F1320 X69.540 Y14.032 E308.18005
G0 F10500 X70.248 Y14.033
G1 F1320 X69.209 Y12.994 E308.22381
G0 F10500 X69.917 Y12.995
G1 F1320 X70.377 Y13.455 E308.24318
;LAYER:29
G0 F10500 X70.303 Y14.589 Z11.445
;TYPE:WALL-INNER
G1 F900 X68.446 Y14.587 E308.29849
G1 X68.446 Y10.170 E308.43005
G1 X86.232 Y10.170 E308.95977
G1 X86.232 Y27.956 E309.48950
G1 X68.446 Y27.956 E310.01923
G1 X68.446 Y23.621 E310.14834
G1 X70.303 Y23.621 E310.20365
G1 X70.303 Y14.589 E310.47265
G0 F10500 X69.803 Y15.088
;TYPE:WALL-OUTER
G1 F780 X67.946 Y15.088 E310.52796
G1 X67.946 Y9.670 E310.68932
G1 X86.732 Y9.670 E311.24883
G1 X86.732 Y28.456 E311.80834
G1 X67.946 Y28.456 E312.36786
G1 X67.946 Y23.121 E312.52675
G1 X69.803 Y23.121 E312.58206
G1 X69.803 Y15.088 E312.82131
G0 F10500 X70.153 Y15.088
G0 X70.477 Y17.444
;TYPE:FILL
G1 F1080 X80.813 Y27.780 E313.25666
G0 F10500 X81.820 Y27.780
G1 F1080 X86.056 Y23.545 E313.43506
G0 F10500 X86.056 Y25.952
G1 F1080 X70.449 Y10.344 E314.09245
G0 F10500 X70.972 Y10.344
G1 F1080 X68.620 Y12.696 E314.19151
G0 F10500 X70.194 Y14.697
G0 X70.477 Y17.911
G1 F1080 X78.043 Y10.344 E314.51022
G0 F10500 X77.520 Y10.344
G1 F1080 X84.992 Y17.817 E314.82496
G0 F10500 X84.712 Y17.818
G1 F1080 X86.056 Y16.474 E314.88157
G0 F10500 X83.930 Y18.600
G1 F1080 X74.749 Y27.780 E315.26825
G0 F10500 X73.742 Y27.780
G1 F1080 X69.757 Y23.795 E315.43610
G0 F10500 X68.620 Y26.838
G1 F1080 X85.114 Y10.344 E316.13083
G0 F10500 X84.591 Y10.344
G1 F1080 X86.056 Y11.810 E316.19255
G0 F10500 X86.056 Y12.585
;TYPE:SKIN
G1 F1320 X84.113 Y14.527 E316.27437
G0 F10500 X84.113 Y15.234
G1 F1320 X86.056 Y13.292 E316.35619
G0 F10500 X86.056 Y13.999
G1 F1320 X84.113 Y15.941 E316.43801
G0 F10500 X84.113 Y16.648
G1 F1320 X86.056 Y14.706 E316.51983
G0 F10500 X86.056 Y15.413
G1 F1320 X83.280 Y18.188 E316.63673
G0 F10500 X83.280 Y17.481
G1 F1320 X83.594 Y17.167 E316.64996
G0 F10500 X83.280 Y18.896
G1 F1320 X86.056 Y16.120 E316.76688
G0 F10500 X86.056 Y16.827
G1 F1320 X83.280 Y19.603 E316.88381
G0 F10500 X83.280 Y20.310
G1 F1320 X86.056 Y17.534 E317.00073
G0 F10500 X86.056 Y18.241
G1 F1320 X83.340 Y20.957 E317.11513
G0 F10500 X84.047 Y20.957
G1 F1320 X86.056 Y18.949 E317.19973
G0 F10500 X86.056 Y19.656
G1 F1320 X84.113 Y21.598 E317.28155
G0 F10500 X84.113 Y22.305
G1 F1320 X86.056 Y20.363 E317.36337
G0 F10500 X86.056 Y21.070
G1 F1320 X84.113 Y23.012 E317.44518
G0 F10500 X84.113 Y23.719
G1 F1320 X86.056 Y21.777 E317.52700
G0 F10500 X86.056 Y22.484
G1 F1320 X84.113 Y24.427 E317.60884
G0 F10500 X84.113 Y25.134
G1 F1320 X86.056 Y23.191 E317.69068
G0 F10500 X86.056 Y23.898
G1 F1320 X84.360 Y25.594 E317.76212
G0 F10500 X85.067 Y25.594
G1 F1320 X86.056 Y24.605 E317.80377
G0 F10500 X86.056 Y25.313
G1 F1320 X85.774 Y25.594 E317.81563
G0 F10500 X84.113 Y13.820
G1 F1320 X85.402 Y12.531 E317.86992
G0 F10500 X84.695 Y12.531
G1 F1320 X84.113 Y13.113 E317.89444
G0 F10500 X70.376 Y13.415
G1 F1320 X69.379 Y14.412 E317.93643
G0 F10500 X70.085 Y14.413
G1 F1320 X70.376 Y14.122 E317.94869
G0 F10500 X69.711 Y13.373
G1 F1320 X68.672 Y14.412 E317.99245
G0 F10500 X68.620 Y13.757
G1 F1320 X69.005 Y13.372 E318.00867
G0 F10500 X70.194 Y14.697
G0 X70.194 Y23.512
G0 X69.188 Y23.795
G1 F1320 X68.620 Y24.364 E318.03261
G0 F10500 X68.855 Y24.836
G1 F1320 X69.896 Y23.795 E318.07646
G0 F10500 X70.377 Y24.021
G1 F1320 X69.562 Y24.836 E318.11079
G0 F10500 X70.269 Y24.836
G1 F1320 X70.377 Y24.728 E318.11534
;LAYER:30
G0 F10500 X70.303 Y23.241 Z11.825
;TYPE:WALL-INNER
G1 F900 X70.303 Y14.969 E318.36170
G1 X68.446 Y14.967 E318.41701
G1 X68.446 Y10.170 E318.55988
G1 X86.232 Y10.170 E319.08961
G1 X86.232 Y27.956 E319.61934
G1 X68.446 Y27.956 E320.14906
G1 X68.446 Y23.241 E320.28949
G1 X70.303 Y23.241 E320.34480
G0 F10500 X69.803 Y22.741
;TYPE:WALL-OUTER
G1 F780 X69.803 Y15.468 E320.56142
G1 X67.946 Y15.468 E320.61672
G1 X67.946 Y9.670 E320.78941
G1 X86.732 Y9.670 E321.34892
G1 X86.732 Y28.456 E321.90843
G1 X67.946 Y28.456 E322.46794
G1 X67.946 Y22.741 E322.63815
G1 X69.803 Y22.741 E322.69346
G0 F10500 X69.378 Y23.416
;TYPE:FILL
G1 F1080 X73.742 Y27.780 E322.87727
G0 F10500 X74.749 Y27.780
G1 F1080 X83.930 Y18.600 E323.26395
G0 F10500 X84.712 Y17.818
G1 F1080 X86.056 Y16.474 E323.32056
G0 F10500 X84.992 Y17.817
G1 F1080 X77.520 Y10.344 E323.63531
G0 F10500 X78.043 Y10.344
G1 F1080 X70.477 Y17.911 E323.95401
G0 F10500 X70.477 Y17.444
G1 F1080 X80.813 Y27.780 E324.38936
G0 F10500 X81.820 Y27.780
G1 F1080 X86.056 Y23.545 E324.56776
G0 F10500 X86.056 Y25.952
G1 F1080 X70.449 Y10.344 E325.22515
G0 F10500 X70.972 Y10.344
G1 F1080 X68.620 Y12.696 E325.32421
G0 F10500 X70.194 Y15.077
G0 X70.194 Y23.132
G0 X68.620 Y26.838
G1 F1080 X85.114 Y10.344 E326.01894
G0 F10500 X84.591 Y10.344
G1 F1080 X86.056 Y11.810 E326.08067
G0 F10500 X85.717 Y12.532
;TYPE:SKIN
G1 F1320 X86.056 Y12.870 E326.09493
G0 F10500 X86.056 Y13.577
G1 F1320 X85.010 Y12.532 E326.13896
G0 F10500 X84.303 Y12.532
G1 F1320 X86.056 Y14.284 E326.21278
G0 F10500 X86.056 Y14.992
G1 F1320 X84.113 Y13.049 E326.29462
G0 F10500 X84.113 Y13.756
G1 F1320 X86.056 Y15.699 E326.37646
G0 F10500 X86.056 Y16.406
G1 F1320 X84.113 Y14.463 E326.45830
G0 F10500 X84.113 Y15.170
G1 F1320 X86.056 Y17.113 E326.54014
G0 F10500 X86.056 Y17.820
G1 F1320 X84.113 Y15.878 E326.62195
G0 F10500 X84.113 Y16.585
G1 F1320 X86.056 Y18.527 E326.70377
G0 F10500 X86.056 Y19.234
G1 F1320 X83.990 Y17.168 E326.79079
G0 F10500 X83.283 Y17.168
G1 F1320 X86.056 Y19.941 E326.90759
G0 F10500 X86.056 Y20.648
G1 F1320 X83.280 Y17.872 E327.02452
G0 F10500 X83.280 Y18.579
G1 F1320 X86.056 Y21.356 E327.14146
G0 F10500 X86.056 Y22.063
G1 F1320 X83.280 Y19.287 E327.25839
G0 F10500 X83.280 Y19.994
G1 F1320 X86.056 Y22.770 E327.37531
G0 F10500 X86.056 Y23.477
G1 F1320 X84.113 Y21.534 E327.45715
G0 F10500 X84.113 Y22.242
G1 F1320 X86.056 Y24.184 E327.53897
G0 F10500 X86.056 Y24.891
G1 F1320 X84.113 Y22.949 E327.62079
G0 F10500 X84.113 Y23.656
G1 F1320 X86.051 Y25.593 E327.70240
G0 F10500 X85.344 Y25.593
G1 F1320 X84.113 Y24.363 E327.75423
G0 F10500 X84.113 Y25.070
G1 F1320 X84.637 Y25.593 E327.77628
G0 F10500 X83.536 Y20.957
G1 F1320 X83.280 Y20.701 E327.78706
G0 F10500 X70.377 Y24.062
G1 F1320 X69.731 Y23.415 E327.81429
G0 F10500 X69.024 Y23.415
G1 F1320 X70.064 Y24.455 E327.85809
G0 F10500 X69.357 Y24.455
G1 F1320 X68.619 Y23.718 E327.88916
G0 F10500 X70.194 Y23.132
G0 X70.194 Y15.077
G0 X68.885 Y14.791
G1 F1320 X68.619 Y14.526 E327.90034
G0 F10500 X68.619 Y13.818
G1 F1320 X69.593 Y14.792 E327.94137
G0 F10500 X70.301 Y14.793
G1 F1320 X69.261 Y13.753 E327.98517
G0 F10500 X69.968 Y13.753
G1 F1320 X70.377 Y14.162 E328.00240
;LAYER:31
G0 F10500 X70.303 Y15.348 Z12.205
;TYPE:WALL-INNER
G1 F840 X68.446 Y15.347 E328.05771
G1 X68.446 Y10.170 E328.21189
G1 X86.232 Y10.170 E328.74162
G1 X86.232 Y27.956 E329.27135
G1 X68.446 Y27.956 E329.80108
G1 X68.446 Y22.861 E329.95282
G1 X70.303 Y22.861 E330.00813
G1 X70.303 Y15.348 E330.23189
G0 F10500 X69.803 Y15.848
;TYPE:WALL-OUTER
G1 F720 X67.946 Y15.847 E330.28720
G1 X67.946 Y9.670 E330.47117
G1 X86.732 Y9.670 E331.03068
G1 X86.732 Y28.456 E331.59019
G1 X67.946 Y28.456 E332.14970
G1 X67.946 Y22.361 E332.33123
G1 X69.803 Y22.361 E332.38654
G1 X69.803 Y15.848 E332.58052
G0 F10500 X70.153 Y15.848
G0 X70.477 Y17.444
;TYPE:FILL
G1 F960 X80.813 Y27.780 E333.01587
G0 F10500 X81.820 Y27.780
G1 F960 X86.056 Y23.545 E333.19427
G0 F10500 X86.056 Y25.952
G1 F960 X70.449 Y10.344 E333.85166
G0 F10500 X70.972 Y10.344
G1 F960 X68.620 Y12.696 E333.95073
G0 F10500 X70.194 Y15.457
G0 X70.477 Y17.911
G1 F960 X78.043 Y10.344 E334.26943
G0 F10500 X77.520 Y10.344
G1 F960 X84.992 Y17.817 E334.58417
G0 F10500 X84.712 Y17.818
G1 F960 X86.056 Y16.474 E334.64078
G0 F10500 X83.930 Y18.600
G1 F960 X74.749 Y27.780 E335.02746
G0 F10500 X73.742 Y27.780
G1 F960 X68.998 Y23.036 E335.22728
G0 F10500 X68.620 Y26.838
G1 F960 X85.114 Y10.344 E335.92201
G0 F10500 X84.591 Y10.344
G1 F960 X86.056 Y11.810 E335.98374
G0 F10500 X85.715 Y17.168
;TYPE:SKIN
G1 F1200 X83.280 Y19.603 E336.08630
G0 F10500 X83.280 Y20.310
G1 F1200 X86.056 Y17.534 E336.20322
G0 F10500 X86.056 Y18.241
G1 F1200 X83.339 Y20.958 E336.31766
G0 F10500 X84.046 Y20.958
G1 F1200 X86.056 Y18.949 E336.40230
G0 F10500 X86.056 Y19.656
G1 F1200 X84.753 Y20.958 E336.45717
G0 F10500 X85.460 Y20.958
G1 F1200 X86.056 Y20.363 E336.48225
G0 F10500 X83.280 Y18.896
G1 F1200 X85.008 Y17.168 E336.55503
G0 F10500 X84.301 Y17.168
G1 F1200 X83.280 Y18.188 E336.59802
G0 F10500 X83.280 Y17.481
G1 F1200 X83.594 Y17.168 E336.61122
G0 F10500 X70.376 Y14.829
G1 F1200 X70.033 Y15.173 E336.62569
G0 F10500 X69.326 Y15.172
G1 F1200 X70.365 Y14.133 E336.66945
G0 F10500 X69.659 Y14.132
G1 F1200 X68.620 Y15.171 E336.71321
G0 F10500 X68.620 Y14.464
G1 F1200 X68.952 Y14.132 E336.72720
G0 F10500 X70.194 Y15.457
G0 X70.194 Y22.752
G0 X69.241 Y23.036
G1 F1200 X68.620 Y23.656 E336.75333
G0 F10500 X68.908 Y24.076
G1 F1200 X69.948 Y23.036 E336.79714
G0 F10500 X70.376 Y23.314
G1 F1200 X69.615 Y24.076 E336.82921
;LAYER:32
G0 F10500 X70.303 Y22.481 Z12.585
;TYPE:WALL-INNER
G1 F840 X70.303 Y15.728 E337.03034
G1 X68.446 Y15.728 E337.08565
G1 X68.446 Y10.170 E337.25118
G1 X86.232 Y10.170 E337.78091
G1 X86.232 Y17.600 E338.00220
G1 X84.190 Y17.600 E338.06302
G1 X84.190 Y20.526 E338.15017
G1 X86.232 Y20.526 E338.21098
G1 X86.232 Y27.956 E338.43227
G1 X68.446 Y27.956 E338.96200
G1 X68.446 Y22.481 E339.12506
G1 X70.303 Y22.481 E339.18037
G0 F10500 X69.803 Y21.981
;TYPE:WALL-OUTER
G1 F720 X69.803 Y16.228 E339.35172
G1 X67.946 Y16.228 E339.40702
G1 X67.946 Y9.670 E339.60234
G1 X86.732 Y9.670 E340.16185
G1 X86.732 Y18.100 E340.41293
G1 X84.690 Y18.100 E340.47375
G1 X84.690 Y20.026 E340.53111
G1 X86.732 Y20.026 E340.59193
G1 X86.732 Y28.456 E340.84300
G1 X67.946 Y28.456 E341.40251
G1 X67.946 Y21.981 E341.59536
G1 X69.803 Y21.981 E341.65067
G0 F10500 X68.620 Y22.658
;TYPE:FILL
G1 F960 X73.742 Y27.780 E341.86640
G0 F10500 X74.749 Y27.780
G1 F960 X84.014 Y18.516 E342.25663
G0 F10500 X84.599 Y17.424
G1 F960 X77.520 Y10.344 E342.55482
G0 F10500 X78.043 Y10.344
G1 F960 X70.477 Y17.911 E342.87352
G0 F10500 X70.477 Y17.444
G1 F960 X80.813 Y27.780 E343.30887
G0 F10500 X81.820 Y27.780
G1 F960 X86.056 Y23.545 E343.48727
G0 F10500 X86.056 Y25.952
G1 F960 X70.449 Y10.344 E344.14466
G0 F10500 X70.972 Y10.344
G1 F960 X68.620 Y12.696 E344.24372
G0 F10500 X70.194 Y15.837
G0 X70.194 Y22.372
G0 X68.620 Y26.838
G1 F960 X85.114 Y10.344 E344.93845
G0 F10500 X84.591 Y10.344
G1 F960 X86.056 Y11.810 E345.00018
G0 F10500 X86.056 Y16.474
G1 F960 X85.105 Y17.424 E345.04021
G0 F10500 X70.353 Y15.552
;TYPE:SKIN
G1 F1200 X69.314 Y14.513 E345.08398
G0 F10500 X68.619 Y14.526
G1 F1200 X69.646 Y15.552 E345.12721
G0 F10500 X68.939 Y15.552
G1 F1200 X68.619 Y15.233 E345.14067
G0 F10500 X70.021 Y14.514
G1 F1200 X70.377 Y14.869 E345.15564
G0 F10500 X70.194 Y22.372
G0 X69.678 Y22.655
G1 F1200 X70.377 Y23.355 E345.18511
G0 F10500 X70.011 Y23.695
G1 F1200 X68.971 Y22.655 E345.22891
G0 F10500 X68.619 Y23.011
G1 F1200 X69.304 Y23.695 E345.25774
;LAYER:33
G0 F10500 X70.303 Y22.101 Z12.965
;TYPE:WALL-INNER
G1 F840 X70.303 Y16.108 E345.43624
G1 X68.446 Y16.108 E345.49154
G1 X68.446 Y10.170 E345.66840
G1 X86.232 Y10.170 E346.19812
G1 X86.232 Y17.600 E346.41941
G1 X84.190 Y17.600 E346.48023
G1 X84.190 Y20.526 E346.56738
G1 X86.232 Y20.526 E346.62820
G1 X86.232 Y27.956 E346.84949
G1 X68.446 Y27.956 E347.37921
G1 X68.446 Y22.101 E347.55360
G1 X70.303 Y22.101 E347.60890
G0 F10500 X69.803 Y21.601
;TYPE:WALL-OUTER
G1 F720 X69.803 Y16.608 E347.75761
G1 X67.946 Y16.608 E347.81292
G1 X67.946 Y9.670 E348.01956
G1 X86.732 Y9.670 E348.57907
G1 X86.732 Y18.100 E348.83014
G1 X84.690 Y18.100 E348.89096
G1 X84.690 Y20.026 E348.94832
G1 X86.732 Y20.026 E349.00914
G1 X86.732 Y28.456 E349.26021
G1 X67.946 Y28.456 E349.81972
G1 X67.946 Y21.601 E350.02389
G1 X69.803 Y21.601 E350.07920
G0 F10500 X69.803 Y21.951
G0 X68.619 Y22.657
;TYPE:FILL
G1 F960 X73.742 Y27.780 E350.29498
G0 F10500 X74.749 Y27.780
G1 F960 X84.014 Y18.516 E350.68520
G0 F10500 X84.599 Y17.424
G1 F960 X77.520 Y10.344 E350.98339
G0 F10500 X78.043 Y10.344
G1 F960 X70.477 Y17.911 E351.30209
G0 F10500 X70.476 Y17.443
G1 F960 X80.813 Y27.780 E351.73748
G0 F10500 X81.820 Y27.780
G1 F960 X86.056 Y23.545 E351.91588
G0 F10500 X86.056 Y25.952
G1 F960 X70.449 Y10.344 E352.57327
G0 F10500 X70.972 Y10.344
G1 F960 X68.620 Y12.696 E352.67234
G0 F10500 X68.620 Y15.587
G1 F960 X68.965 Y15.932 E352.68687
G0 F10500 X70.194 Y16.217
G0 X70.194 Y21.992
G0 X68.620 Y26.838
G1 F960 X85.114 Y10.344 E353.38160
G0 F10500 X84.591 Y10.344
G1 F960 X86.056 Y11.810 E353.44333
G0 F10500 X86.056 Y16.474
G1 F960 X85.105 Y17.424 E353.48336
G0 F10500 X70.377 Y15.535
;TYPE:SKIN
G1 F1200 X69.980 Y15.933 E353.50010
G0 F10500 X69.273 Y15.933
G1 F1200 X70.313 Y14.893 E353.54391
G0 F10500 X69.606 Y14.892
G1 F1200 X68.620 Y15.878 E353.58544
G0 F10500 X68.620 Y15.171
G1 F1200 X68.900 Y14.891 E353.59723
G0 F10500 X70.194 Y16.217
G0 X70.194 Y21.992
G0 X69.294 Y22.275
G1 F1200 X68.620 Y22.949 E353.62562
G0 F10500 X68.961 Y23.316
G1 F1200 X70.001 Y22.275 E353.66945
G0 F10500 X70.376 Y22.607
G1 F1200 X69.668 Y23.316 E353.69929
;LAYER:34
G0 F10500 X70.303 Y21.721 Z13.345
;TYPE:WALL-INNER
G1 F840 X70.303 Y16.488 E353.85515
G1 X68.446 Y16.488 E353.91045
G1 X68.446 Y10.170 E354.09863
G1 X86.232 Y10.170 E354.62835
G1 X86.232 Y17.600 E354.84964
G1 X84.190 Y17.600 E354.91046
G1 X84.190 Y20.526 E354.99761
G1 X86.232 Y20.526 E355.05842
G1 X86.232 Y27.956 E355.27971
G1 X68.446 Y27.956 E355.80944
G1 X68.446 Y21.721 E355.99514
G1 X70.303 Y21.721 E356.05045
G0 F10500 X69.803 Y21.221
;TYPE:WALL-OUTER
G1 F720 X69.803 Y16.988 E356.17652
G1 X67.946 Y16.987 E356.23183
G1 X67.946 Y9.670 E356.44976
G1 X86.732 Y9.670 E357.00927
G1 X86.732 Y18.100 E357.26034
G1 X84.690 Y18.100 E357.32116
G1 X84.690 Y20.026 E357.37852
G1 X86.732 Y20.026 E357.43934
G1 X86.732 Y28.456 E357.69041
G1 X67.946 Y28.456 E358.24992
G1 X67.946 Y21.221 E358.46540
G1 X69.803 Y21.221 E358.52071
G0 F10500 X69.803 Y21.571
G0 X68.620 Y22.658
;TYPE:FILL
G1 F960 X73.742 Y27.780 E358.73645
G0 F10500 X74.749 Y27.780
G1 F960 X84.014 Y18.516 E359.12667
G0 F10500 X84.599 Y17.424
G1 F960 X77.520 Y10.344 E359.42486
G0 F10500 X78.043 Y10.344
G1 F960 X70.477 Y17.911 E359.74356
G0 F10500 X70.477 Y17.444
G1 F960 X80.813 Y27.780 E360.17892
G0 F10500 X81.820 Y27.780
G1 F960 X86.056 Y23.545 E360.35732
G0 F10500 X86.056 Y25.952
G1 F960 X70.449 Y10.344 E361.01470
G0 F10500 X70.972 Y10.344
G1 F960 X68.620 Y12.696 E361.11377
G0 F10500 X68.620 Y15.587
G1 F960 X69.345 Y16.312 E361.14431
G0 F10500 X70.194 Y16.597
G0 X70.194 Y21.612
G0 X68.620 Y26.838
G1 F960 X85.114 Y10.344 E361.83904
G0 F10500 X84.591 Y10.344
G1 F960 X86.056 Y11.810 E361.90076
G0 F10500 X86.056 Y16.474
G1 F960 X85.105 Y17.424 E361.94080
G0 F10500 X70.377 Y16.283
;TYPE:SKIN
G1 F1200 X69.366 Y15.272 E361.98338
G0 F10500 X68.659 Y15.272
G1 F1200 X69.699 Y16.312 E362.02719
G0 F10500 X68.992 Y16.312
G1 F1200 X68.620 Y15.941 E362.04283
G0 F10500 X70.073 Y15.272
G1 F1200 X70.377 Y15.576 E362.05564
G0 F10500 X70.194 Y21.612
G0 X69.625 Y21.896
G1 F1200 X70.376 Y22.647 E362.08727
G0 F10500 X69.958 Y22.935
G1 F1200 X68.918 Y21.896 E362.13105
G0 F10500 X68.620 Y22.304
G1 F1200 X69.251 Y22.935 E362.15763
;LAYER:35
G0 F10500 X70.303 Y21.341 Z13.725
;TYPE:WALL-INNER
G1 F840 X70.303 Y16.868 E362.29085
G1 X68.446 Y16.868 E362.34616
G1 X68.446 Y10.170 E362.54565
G1 X86.232 Y10.170 E363.07538
G1 X86.232 Y17.600 E363.29667
G1 X84.190 Y17.600 E363.35749
G1 X84.190 Y20.526 E363.44463
G1 X86.232 Y20.526 E363.50545
G1 X86.232 Y27.956 E363.72674
G1 X68.446 Y27.956 E364.25647
G1 X68.446 Y21.341 E364.45348
G1 X70.303 Y21.341 E364.50879
G0 F10500 X69.803 Y20.841
;TYPE:WALL-OUTER
G1 F720 X69.803 Y17.368 E364.61223
G1 X67.946 Y17.367 E364.66754
G1 X67.946 Y9.670 E364.89678
G1 X86.732 Y9.670 E365.45629
G1 X86.732 Y18.100 E365.70736
G1 X84.690 Y18.100 E365.76818
G1 X84.690 Y20.026 E365.82555
G1 X86.732 Y20.026 E365.88636
G1 X86.732 Y28.456 E366.13744
G1 X67.946 Y28.456 E366.69695
G1 X67.946 Y20.841 E366.92375
G1 X69.803 Y20.841 E366.97906
G0 F10500 X69.803 Y21.191
G0 X68.620 Y22.658
;TYPE:FILL
G1 F960 X73.742 Y27.780 E367.19479
G0 F10500 X74.749 Y27.780
G1 F960 X84.014 Y18.516 E367.58502
G0 F10500 X84.599 Y17.424
G1 F960 X77.520 Y10.344 E367.88320
G0 F10500 X78.043 Y10.344
G1 F960 X70.477 Y17.911 E368.20191
G0 F10500 X70.477 Y17.444
G1 F960 X80.813 Y27.780 E368.63726
G0 F10500 X81.820 Y27.780
G1 F960 X86.056 Y23.545 E368.81566
G0 F10500 X86.056 Y25.952
G1 F960 X70.449 Y10.344 E369.47305
G0 F10500 X70.972 Y10.344
G1 F960 X68.620 Y12.696 E369.57211
G0 F10500 X68.620 Y15.587
G1 F960 X69.726 Y16.693 E369.61870
G0 F10500 X70.194 Y16.977
G0 X70.194 Y21.232
G0 X68.620 Y26.838
G1 F960 X85.114 Y10.344 E370.31343
G0 F10500 X84.591 Y10.344
G1 F960 X86.056 Y11.810 E370.37515
G0 F10500 X86.056 Y16.474
G1 F960 X85.105 Y17.424 E370.41519
G0 F10500 X70.377 Y16.242
;TYPE:SKIN
G1 F1200 X69.927 Y16.693 E370.43416
G0 F10500 X69.220 Y16.693
G1 F1200 X70.260 Y15.652 E370.47799
G0 F10500 X69.553 Y15.652
G1 F1200 X68.620 Y16.585 E370.51729
G0 F10500 X68.620 Y15.878
G1 F1200 X68.846 Y15.652 E370.52681
G0 F10500 X70.194 Y16.977
G0 X70.194 Y21.232
G0 X69.347 Y21.515
G1 F1200 X68.620 Y22.242 E370.55743
G0 F10500 X69.014 Y22.555
G1 F1200 X70.054 Y21.515 E370.60123
G0 F10500 X70.376 Y21.900
G1 F1200 X69.721 Y22.555 E370.62882
;LAYER:36
G0 F10500 X70.303 Y20.961 Z14.105
;TYPE:WALL-INNER
G1 F840 X70.303 Y17.248 E370.73941
G1 X68.446 Y17.247 E370.79472
G1 X68.446 Y10.170 E371.00549
G1 X86.232 Y10.170 E371.53522
G1 X86.232 Y27.956 E372.06495
G1 X68.446 Y27.956 E372.59467
G1 X68.446 Y20.961 E372.80301
G1 X70.303 Y20.961 E372.85832
G0 F10500 X69.803 Y20.461
;TYPE:WALL-OUTER
G1 F720 X69.803 Y17.748 E372.93912
G1 X67.946 Y17.747 E372.99443
G1 X67.946 Y9.670 E373.23499
G1 X86.732 Y9.670 E373.79450
G1 X86.732 Y28.456 E374.35401
G1 X67.946 Y28.456 E374.91352
G1 X67.946 Y20.461 E375.15164
G1 X69.803 Y20.461 E375.20694
G0 F10500 X69.803 Y20.811
G0 X68.619 Y22.657
;TYPE:FILL
G1 F960 X73.742 Y27.780 E375.42273
G0 F10500 X74.749 Y27.780
G1 F960 X86.056 Y16.474 E375.89896
G0 F10500 X86.056 Y18.881
G1 F960 X77.520 Y10.344 E376.25851
G0 F10500 X78.043 Y10.344
G1 F960 X70.477 Y17.911 E376.57722
G0 F10500 X70.477 Y17.444
G1 F960 X80.813 Y27.780 E377.01257
G0 F10500 X81.820 Y27.780
G1 F960 X86.056 Y23.545 E377.19097
G0 F10500 X86.056 Y25.952
G1 F960 X70.449 Y10.344 E377.84836
G0 F10500 X70.972 Y10.344
G1 F960 X68.620 Y12.696 E377.94742
G0 F10500 X68.620 Y15.587
G1 F960 X70.105 Y17.072 E378.00997
G0 F10500 X70.194 Y20.852
G0 X68.620 Y26.838
G1 F960 X85.114 Y10.344 E378.70470
G0 F10500 X84.591 Y10.344
G1 F960 X86.056 Y11.810 E378.76643
G0 F10500 X85.760 Y17.524
;TYPE:SKIN
G1 F1200 X86.056 Y17.820 E378.77889
G0 F10500 X86.056 Y18.527
G1 F1200 X85.053 Y17.524 E378.82114
G0 F10500 X84.346 Y17.524
G1 F1200 X86.056 Y19.234 E378.89317
G0 F10500 X86.056 Y19.941
G1 F1200 X84.114 Y18.000 E378.97494
G0 F10500 X84.114 Y18.707
G1 F1200 X86.008 Y20.600 E379.05470
G0 F10500 X85.301 Y20.600
G1 F1200 X84.114 Y19.414 E379.10467
G0 F10500 X84.114 Y20.121
G1 F1200 X84.594 Y20.600 E379.12487
G0 F10500 X70.377 Y21.233
G1 F1200 X70.280 Y21.136 E379.12895
G0 F10500 X69.572 Y21.136
G1 F1200 X70.377 Y21.940 E379.16284
G0 F10500 X69.905 Y22.176
G1 F1200 X68.865 Y21.136 E379.20664
G0 F10500 X68.619 Y21.597
G1 F1200 X69.198 Y22.176 E379.23103
G0 F10500 X70.194 Y20.852
G0 X70.194 Y17.357
G0 X69.044 Y17.072
G1 F1200 X68.620 Y16.648 E379.24889
G0 F10500 X68.712 Y16.032
G1 F1200 X69.751 Y17.072 E379.29268
G0 F10500 X70.377 Y16.991
G1 F1200 X69.419 Y16.032 E379.33305
G0 F10500 X70.126 Y16.032
G1 F1200 X70.377 Y16.283 E379.34362
;LAYER:37
G0 F10500 X70.303 Y17.628 Z14.485
;TYPE:WALL-INNER
G1 F840 X68.446 Y17.627 E379.39893
G1 X68.446 Y10.170 E379.62102
G1 X86.232 Y10.170 E380.15075
G1 X86.232 Y27.956 E380.68048
G1 X68.446 Y27.956 E381.21020
G1 X68.446 Y20.581 E381.42986
G1 X70.303 Y20.581 E381.48516
G1 X70.303 Y17.628 E381.57311
G0 F10500 X69.803 Y18.128
;TYPE:WALL-OUTER
G1 F720 X67.946 Y18.127 E381.62842
G1 X67.946 Y9.670 E381.88030
G1 X86.732 Y9.670 E382.43981
G1 X86.732 Y28.456 E382.99932
G1 X67.946 Y28.456 E383.55883
G1 X67.946 Y20.081 E383.80827
G1 X69.803 Y20.081 E383.86358
G1 X69.803 Y18.128 E383.92174
G0 F10500 X70.477 Y17.911
;TYPE:FILL
G1 F960 X78.043 Y10.344 E384.24044
G0 F10500 X77.520 Y10.344
G1 F960 X86.056 Y18.881 E384.60000
G0 F10500 X86.056 Y16.474
G1 F960 X74.749 Y27.780 E385.07623
G0 F10500 X73.742 Y27.780
G1 F960 X68.620 Y22.658 E385.29197
G0 F10500 X68.620 Y26.838
G1 F960 X85.114 Y10.344 E385.98670
G0 F10500 X84.591 Y10.344
G1 F960 X86.056 Y11.810 E386.04843
G0 F10500 X86.056 Y23.545
G1 F960 X81.820 Y27.780 E386.22683
G0 F10500 X80.813 Y27.780
G1 F960 X68.619 Y15.586 E386.74044
G0 F10500 X68.620 Y12.696
G1 F960 X70.972 Y10.344 E386.83950
G0 F10500 X70.449 Y10.344
G1 F960 X86.056 Y25.952 E387.49689
G0 F10500 X85.818 Y20.600
;TYPE:SKIN
G1 F1200 X86.056 Y20.363 E387.50690
G0 F10500 X86.056 Y19.656
G1 F1200 X85.111 Y20.600 E387.54668
G0 F10500 X84.404 Y20.600
G1 F1200 X86.056 Y18.949 E387.61624
G0 F10500 X86.056 Y18.241
G1 F1200 X84.114 Y20.183 E387.69804
G0 F10500 X84.114 Y19.476
G1 F1200 X86.056 Y17.534 E387.77983
G0 F10500 X85.359 Y17.524
G1 F1200 X84.114 Y18.769 E387.83227
G0 F10500 X84.114 Y18.062
G1 F1200 X84.651 Y17.524 E387.85491
G0 F10500 X70.376 Y16.950
G1 F1200 X69.874 Y17.452 E387.87606
G0 F10500 X69.167 Y17.452
G1 F1200 X70.207 Y16.412 E387.91986
G0 F10500 X69.500 Y16.412
G1 F1200 X68.620 Y17.293 E387.95695
G0 F10500 X68.620 Y16.585
G1 F1200 X68.793 Y16.412 E387.96424
G0 F10500 X70.194 Y17.737
G0 X70.194 Y20.472
G0 X68.693 Y20.755
G1 F1200 X68.620 Y20.828 E387.96731
G0 F10500 X68.620 Y21.535
G1 F1200 X69.400 Y20.755 E388.00016
G0 F10500 X70.107 Y20.755
G1 F1200 X69.067 Y21.795 E388.04397
G0 F10500 X69.774 Y21.795
G1 F1200 X70.376 Y21.193 E388.06933
;LAYER:38
G0 F10500 X70.303 Y20.201 Z14.865
;TYPE:WALL-INNER
G1 F840 X70.303 Y18.008 E388.13464
G1 X68.446 Y18.007 E388.18995
G1 X68.446 Y10.170 E388.42336
G1 X86.232 Y10.170 E388.95309
G1 X86.232 Y17.600 E389.17438
G1 X84.190 Y17.600 E389.23520
G1 X84.190 Y20.526 E389.32234
G1 X86.232 Y20.526 E389.38316
G1 X86.232 Y27.956 E389.60445
G1 X68.446 Y27.956 E390.13418
G1 X68.446 Y20.201 E390.36515
G1 X70.303 Y20.201 E390.42046
G0 F10500 X69.803 Y19.701
;TYPE:WALL-OUTER
G1 F720 X69.803 Y18.508 E390.45599
G1 X67.946 Y18.507 E390.51129
G1 X67.946 Y9.670 E390.77449
G1 X86.732 Y9.670 E391.33400
G1 X86.732 Y18.100 E391.58508
G1 X84.690 Y18.100 E391.64589
G1 X84.690 Y20.026 E391.70326
G1 X86.732 Y20.026 E391.76407
G1 X86.732 Y28.456 E392.01515
G1 X67.946 Y28.456 E392.57466
G1 X67.946 Y19.701 E392.83541
G1 X69.803 Y19.701 E392.89072
G0 F10500 X69.803 Y20.051
G0 X70.194 Y20.092
G0 X70.477 Y17.911
;TYPE:FILL
G1 F960 X78.043 Y10.344 E393.20942
G0 F10500 X77.520 Y10.344
G1 F960 X84.599 Y17.424 E393.50761
G0 F10500 X85.105 Y17.424
G1 F960 X86.056 Y16.474 E393.54764
G0 F10500 X84.299 Y17.709
G0 X84.014 Y18.516
G1 F960 X74.749 Y27.780 E393.93787
G0 F10500 X73.742 Y27.780
G1 F960 X68.620 Y22.658 E394.15360
G0 F10500 X68.620 Y26.838
G1 F960 X85.114 Y10.344 E394.84833
G0 F10500 X84.591 Y10.344
G1 F960 X86.056 Y11.810 E394.91006
G0 F10500 X84.299 Y17.709
G0 X84.299 Y20.417
G0 X86.056 Y23.545
G1 F960 X81.820 Y27.780 E395.08846
G0 F10500 X80.813 Y27.780
G1 F960 X68.620 Y15.587 E395.60203
G0 F10500 X68.620 Y12.696
G1 F960 X70.972 Y10.344 E395.70110
G0 F10500 X70.449 Y10.344
G1 F960 X86.056 Y25.952 E396.35848
G0 F10500 X70.377 Y21.233
;TYPE:SKIN
G1 F1200 X69.519 Y20.375 E396.39462
G0 F10500 X68.812 Y20.375
G1 F1200 X69.852 Y21.416 E396.43845
G0 F10500 X69.145 Y21.416
G1 F1200 X68.619 Y20.890 E396.46060
G0 F10500 X70.227 Y20.375
G1 F1200 X70.377 Y20.526 E396.46694
G0 F10500 X70.194 Y18.117
G0 X69.804 Y17.832
G1 F1200 X68.765 Y16.793 E396.51071
G0 F10500 X68.619 Y17.354
G1 F1200 X69.097 Y17.831 E396.53082
G0 F10500 X69.472 Y16.793
G1 F1200 X70.377 Y17.698 E396.56894
G0 F10500 X70.377 Y16.991
G1 F1200 X70.179 Y16.793 E396.57728
;LAYER:39
G0 F10500 X68.446 Y10.170 Z15.245
;TYPE:WALL-INNER
G1 F840 X86.232 Y10.170 E397.10700
G1 X86.232 Y17.600 E397.32830
G1 X84.190 Y17.600 E397.38911
G1 X84.190 Y20.526 E397.47626
G1 X86.232 Y20.526 E397.53708
G1 X86.232 Y27.956 E397.75837
G1 X68.446 Y27.956 E398.28809
G1 X68.446 Y10.170 E398.81782
G0 F10500 X67.946 Y9.670
;TYPE:WALL-OUTER
G1 F720 X86.732 Y9.670 E399.37733
G1 X86.732 Y18.100 E399.62841
G1 X84.690 Y18.100 E399.68922
G1 X84.690 Y20.026 E399.74659
G1 X86.732 Y20.026 E399.80740
G1 X86.732 Y28.456 E400.05848
G1 X67.946 Y28.456 E400.61799
G1 X67.946 Y9.670 E401.17750
G0 F10500 X68.296 Y9.930
G0 X70.449 Y10.344
;TYPE:FILL
G1 F960 X86.056 Y25.952 E401.83489
G0 F10500 X86.056 Y23.545
G1 F960 X81.820 Y27.780 E402.01329
G0 F10500 X80.813 Y27.780
G1 F960 X68.620 Y15.587 E402.52686
G0 F10500 X68.620 Y12.696
G1 F960 X70.972 Y10.344 E402.62592
G0 F10500 X77.520 Y10.344
G1 F960 X84.599 Y17.424 E402.92411
G0 F10500 X85.105 Y17.424
G1 F960 X86.056 Y16.474 E402.96415
G0 F10500 X84.299 Y17.709
G0 X84.014 Y18.516
G1 F960 X74.749 Y27.780 E403.35437
G0 F10500 X73.742 Y27.780
G1 F960 X68.620 Y22.658 E403.57011
G0 F10500 X68.620 Y26.838
G1 F960 X85.114 Y10.344 E404.26484
G0 F10500 X84.591 Y10.344
G1 F960 X86.056 Y11.810 E404.32656
G0 F10500 X78.043 Y10.344
G1 F960 X69.727 Y18.660 E404.67683
G0 F10500 X70.376 Y18.364
;TYPE:SKIN
G1 F1200 X68.620 Y20.121 E404.75082
G0 F10500 X68.620 Y20.828
G1 F1200 X70.376 Y19.072 E404.82478
G0 F10500 X70.376 Y19.779
G1 F1200 X69.119 Y21.036 E404.87773
G0 F10500 X69.826 Y21.036
G1 F1200 X70.376 Y20.486 E404.90089
G0 F10500 X68.620 Y19.414
G1 F1200 X70.376 Y17.657 E404.97488
G0 F10500 X70.155 Y17.172
G1 F1200 X68.620 Y18.707 E405.03953
G0 F10500 X68.620 Y18.000
G1 F1200 X69.448 Y17.172 E405.07441
G0 F10500 X68.741 Y17.172
G1 F1200 X68.620 Y17.293 E405.07950
;LAYER:40
G0 F10500 X68.446 Y10.170 Z15.625
;TYPE:WALL-INNER
G1 F840 X86.232 Y10.170 E405.60923
G1 X86.232 Y17.600 E405.83052
G1 X84.190 Y17.600 E405.89134
G1 X84.190 Y20.526 E405.97848
G1 X86.232 Y20.526 E406.03930
G1 X86.232 Y27.956 E406.26059
G1 X68.446 Y27.956 E406.79032
G1 X68.446 Y10.170 E407.32005
G0 F10500 X67.946 Y9.670
;TYPE:WALL-OUTER
G1 F720 X86.732 Y9.670 E407.87956
G1 X86.732 Y18.100 E408.13063
G1 X84.690 Y18.100 E408.19145
G1 X84.690 Y20.026 E408.24881
G1 X86.732 Y20.026 E408.30963
G1 X86.732 Y28.456 E408.56070
G1 X67.946 Y28.456 E409.12021
G1 X67.946 Y9.670 E409.67972
G0 F10500 X68.296 Y9.930
G0 X70.449 Y10.344
;TYPE:FILL
G1 F960 X86.056 Y25.952 E410.33711
G0 F10500 X86.056 Y23.545
G1 F960 X81.820 Y27.780 E410.51551
G0 F10500 X80.813 Y27.780
G1 F960 X68.620 Y15.587 E411.02908
G0 F10500 X68.620 Y12.696
G1 F960 X70.972 Y10.344 E411.12815
G0 F10500 X77.520 Y10.344
G1 F960 X84.599 Y17.424 E411.42634
G0 F10500 X85.105 Y17.424
G1 F960 X86.056 Y16.474 E411.46637
G0 F10500 X84.299 Y17.709
G0 X84.014 Y18.516
G1 F960 X74.749 Y27.780 E411.85659
G0 F10500 X73.742 Y27.780
G1 F960 X68.620 Y22.658 E412.07233
G0 F10500 X68.620 Y26.838
G1 F960 X85.114 Y10.344 E412.76706
G0 F10500 X84.591 Y10.344
G1 F960 X86.056 Y11.810 E412.82879
G0 F10500 X78.043 Y10.344
G1 F960 X68.620 Y19.767 E413.22569
G0 F10500 X68.620 Y19.476
;TYPE:SKIN
G1 F1200 X69.799 Y20.656 E413.27537
G0 F10500 X70.376 Y20.525
G1 F1200 X68.620 Y18.769 E413.34933
G0 F10500 X68.620 Y18.062
G1 F1200 X70.376 Y19.818 E413.42329
G0 F10500 X70.376 Y19.111
G1 F1200 X68.817 Y17.552 E413.48896
G0 F10500 X69.525 Y17.553
G1 F1200 X70.376 Y18.404 E413.52480
G0 F10500 X70.376 Y17.697
G1 F1200 X70.232 Y17.553 E413.53087
G0 F10500 X68.620 Y20.183
G1 F1200 X69.092 Y20.656 E413.55077
;LAYER:41
G0 F10500 X68.446 Y27.956 Z16.005
;TYPE:WALL-INNER
G1 F840 X68.446 Y10.170 E414.08050
G1 X86.232 Y10.170 E414.61022
G1 X86.232 Y17.600 E414.83151
G1 X84.190 Y17.600 E414.89233
G1 X84.190 Y20.526 E414.97948
G1 X86.232 Y20.526 E415.04029
G1 X86.232 Y27.956 E415.26159
G1 X68.446 Y27.956 E415.79131
G0 F10500 X67.946 Y28.456
;TYPE:WALL-OUTER
G1 F720 X67.946 Y9.670 E416.35082
G1 X86.732 Y9.670 E416.91033
G1 X86.732 Y18.100 E417.16141
G1 X84.690 Y18.100 E417.22222
G1 X84.690 Y20.026 E417.27959
G1 X86.732 Y20.026 E417.34041
G1 X86.732 Y28.456 E417.59148
G1 X67.946 Y28.456 E418.15099
G0 F10500 X68.206 Y28.106
G0 X68.620 Y26.838
;TYPE:FILL
G1 F960 X85.114 Y10.344 E418.84572
G0 F10500 X84.591 Y10.344
G1 F960 X86.056 Y11.810 E418.90745
G0 F10500 X86.056 Y16.474
G1 F960 X85.105 Y17.424 E418.94748
G0 F10500 X84.599 Y17.424
G1 F960 X77.520 Y10.344 E419.24567
G0 F10500 X78.043 Y10.344
G1 F960 X68.620 Y19.767 E419.64257
G0 F10500 X68.620 Y15.587
G1 F960 X80.813 Y27.780 E420.15614
G0 F10500 X81.820 Y27.780
G1 F960 X86.056 Y23.545 E420.33454
G0 F10500 X86.056 Y25.952
G1 F960 X70.449 Y10.344 E420.99192
G0 F10500 X70.972 Y10.344
G1 F960 X68.620 Y12.696 E421.09099
G0 F10500 X68.620 Y22.658
G1 F960 X73.742 Y27.780 E421.30673
G0 F10500 X74.749 Y27.780
G1 F960 X84.014 Y18.516 E421.69695
G0 F10500 X70.377 Y18.364
;TYPE:SKIN
G1 F1200 X68.620 Y20.121 E421.77096
G0 F10500 X69.172 Y20.276
G1 F1200 X70.377 Y19.071 E421.82171
G0 F10500 X70.377 Y19.778
G1 F1200 X69.879 Y20.276 E421.84269
G0 F10500 X68.620 Y19.414
G1 F1200 X70.102 Y17.932 E421.90511
G0 F10500 X69.395 Y17.932
G1 F1200 X68.620 Y18.707 E421.93775
;LAYER:42
G0 F10500 X68.446 Y10.170 Z16.385
;TYPE:WALL-INNER
G1 F780 X86.232 Y10.170 E422.46748
G1 X86.232 Y27.956 E422.99721
G1 X68.446 Y27.956 E423.52693
G1 X68.446 Y10.170 E424.05666
G0 F10500 X67.946 Y9.670
;TYPE:WALL-OUTER
G1 F660 X86.732 Y9.670 E424.61617
G1 X86.732 Y28.456 E425.17568
G1 X67.946 Y28.456 E425.73519
G1 X67.946 Y9.670 E426.29470
G0 F10500 X68.296 Y9.930
G0 X70.449 Y10.344
;TYPE:FILL
G1 F900 X86.056 Y25.952 E426.95209
G0 F10500 X86.056 Y23.545
G1 F900 X81.820 Y27.780 E427.13049
G0 F10500 X80.813 Y27.780
G1 F900 X68.620 Y15.587 E427.64406
G0 F10500 X68.620 Y12.696
G1 F900 X70.972 Y10.344 E427.74313
G0 F10500 X77.520 Y10.344
G1 F900 X86.056 Y18.881 E428.10269
G0 F10500 X86.056 Y16.474
G1 F900 X74.749 Y27.780 E428.57892
G0 F10500 X73.742 Y27.780
G1 F900 X68.620 Y22.658 E428.79466
G0 F10500 X68.620 Y26.838
G1 F900 X85.114 Y10.344 E429.48938
G0 F10500 X84.591 Y10.344
G1 F900 X86.056 Y11.810 E429.55111
G0 F10500 X78.043 Y10.344
G1 F900 X68.620 Y19.767 E429.94801
G0 F10500 X84.114 Y19.414
;TYPE:SKIN
G1 F1140 X85.301 Y20.600 E429.99798
G0 F10500 X86.008 Y20.600
G1 F1140 X84.114 Y18.707 E430.07774
G0 F10500 X84.114 Y18.000
G1 F1140 X86.056 Y19.941 E430.15951
G0 F10500 X86.056 Y19.234
G1 F1140 X84.346 Y17.524 E430.23154
G0 F10500 X85.053 Y17.524
G1 F1140 X86.056 Y18.527 E430.27379
G0 F10500 X86.056 Y17.820
G1 F1140 X85.760 Y17.524 E430.28625
G0 F10500 X84.114 Y20.121
G1 F1140 X84.594 Y20.600 E430.30645
;LAYER:43
G0 F10500 X86.232 Y27.956 Z16.765
;TYPE:WALL-INNER
G1 F780 X68.446 Y27.956 E430.83618
G1 X68.446 Y10.170 E431.36590
G1 X86.232 Y10.170 E431.89563
G1 X86.232 Y27.956 E432.42536
G0 F10500 X86.732 Y28.456
;TYPE:WALL-OUTER
G1 F660 X67.946 Y28.456 E432.98487
G1 X67.946 Y9.670 E433.54438
G1 X86.732 Y9.670 E434.10389
G1 X86.732 Y28.456 E434.66340
G0 F10500 X86.382 Y28.196
G0 X86.056 Y25.952
;TYPE:FILL
G1 F900 X70.449 Y10.344 E435.32079
G0 F10500 X70.972 Y10.344
G1 F900 X68.620 Y12.696 E435.41986
G0 F10500 X68.620 Y15.587
G1 F900 X80.813 Y27.780 E435.93343
G0 F10500 X81.820 Y27.780
G1 F900 X86.056 Y23.545 E436.11183
G0 F10500 X86.056 Y18.881
G1 F900 X77.520 Y10.344 E436.47138
G0 F10500 X78.043 Y10.344
G1 F900 X68.620 Y19.767 E436.86828
G0 F10500 X68.620 Y22.658
G1 F900 X73.742 Y27.780 E437.08402
G0 F10500 X74.749 Y27.780
G1 F900 X86.056 Y16.474 E437.56025
G0 F10500 X86.056 Y11.810
G1 F900 X84.591 Y10.344 E437.62198
G0 F10500 X85.114 Y10.344
G1 F900 X68.620 Y26.838 E438.31671
G0 F10500 X84.114 Y20.183
;TYPE:SKIN
G1 F1140 X86.056 Y18.241 E438.39850
G0 F10500 X86.056 Y17.534
G1 F1140 X84.114 Y19.476 E438.48030
G0 F10500 X84.114 Y18.769
G1 F1140 X85.359 Y17.524 E438.53274
G0 F10500 X84.651 Y17.524
G1 F1140 X84.114 Y18.062 E438.55538
G0 F10500 X86.056 Y18.949
G1 F1140 X84.404 Y20.600 E438.62494
G0 F10500 X85.111 Y20.600
G1 F1140 X86.056 Y19.656 E438.66472
G0 F10500 X86.056 Y20.363
G1 F1140 X85.818 Y20.600 E438.67473
;LAYER:44
G0 F10500 X86.232 Y27.956 Z17.145
;TYPE:WALL-INNER
G1 F780 X68.446 Y27.956 E439.20445
G1 X68.446 Y10.170 E439.73418
G1 X86.232 Y10.170 E440.26391
G1 X86.232 Y27.956 E440.79363
G0 F10500 X86.732 Y28.456
;TYPE:WALL-OUTER
G1 F660 X67.946 Y28.456 E441.35315
G1 X67.946 Y9.670 E441.91266
G1 X86.732 Y9.670 E442.47217
G1 X86.732 Y28.456 E443.03168
G0 F10500 X86.382 Y28.196
G0 X86.056 Y25.952
;TYPE:FILL
G1 F900 X70.449 Y10.344 E443.68907
G0 F10500 X70.972 Y10.344
G1 F900 X68.620 Y12.696 E443.78813
G0 F10500 X68.620 Y15.587
G1 F900 X80.813 Y27.780 E444.30170
G0 F10500 X81.820 Y27.780
G1 F900 X86.056 Y23.545 E444.48010
G0 F10500 X86.056 Y18.881
G1 F900 X77.520 Y10.344 E444.83966
G0 F10500 X78.043 Y10.344
G1 F900 X68.620 Y19.767 E445.23656
G0 F10500 X68.620 Y22.658
G1 F900 X73.742 Y27.780 E445.45230
G0 F10500 X74.749 Y27.780
G1 F900 X86.056 Y16.474 E445.92853
G0 F10500 X86.056 Y11.810
G1 F900 X84.591 Y10.344 E445.99025
G0 F10500 X85.114 Y10.344
G1 F900 X68.620 Y26.838 E446.68498
G0 F10500 X84.114 Y20.121
;TYPE:SKIN
G1 F1140 X84.594 Y20.600 E446.70518
G0 F10500 X85.301 Y20.600
G1 F1140 X84.114 Y19.414 E446.75515
G0 F10500 X84.114 Y18.707
G1 F1140 X86.008 Y20.600 E446.83491
G0 F10500 X86.056 Y19.941
G1 F1140 X84.114 Y18.000 E446.91668
G0 F10500 X84.346 Y17.524
G1 F1140 X86.056 Y19.234 E446.98871
G0 F10500 X86.056 Y18.527
G1 F1140 X85.053 Y17.524 E447.03096
G0 F10500 X85.760 Y17.524
G1 F1140 X86.056 Y17.820 E447.04342
;LAYER:45
G0 F10500 X86.232 Y10.170 Z17.525
;TYPE:WALL-INNER
G1 F780 X86.232 Y27.956 E447.57315
G1 X68.446 Y27.956 E448.10288
G1 X68.446 Y10.170 E448.63261
G1 X86.232 Y10.170 E449.16233
G0 F10500 X86.732 Y9.670
;TYPE:WALL-OUTER
G1 F660 X86.732 Y28.456 E449.72184
G1 X67.946 Y28.456 E450.28135
G1 X67.946 Y9.670 E450.84086
G1 X86.732 Y9.670 E451.40037
G0 F10500 X86.382 Y9.930
G0 X85.114 Y10.344
;TYPE:FILL
G1 F900 X68.620 Y26.838 E452.09510
G0 F10500 X68.620 Y22.658
G1 F900 X73.742 Y27.780 E452.31084
G0 F10500 X74.749 Y27.780
G1 F900 X86.056 Y16.474 E452.78707
G0 F10500 X86.056 Y18.881
G1 F900 X77.520 Y10.344 E453.14663
G0 F10500 X78.043 Y10.344
G1 F900 X68.620 Y19.767 E453.54353
G0 F10500 X68.620 Y15.587
G1 F900 X80.813 Y27.780 E454.05710
G0 F10500 X81.820 Y27.780
G1 F900 X86.056 Y23.545 E454.23550
G0 F10500 X86.056 Y25.952
G1 F900 X70.449 Y10.344 E454.89289
G0 F10500 X70.972 Y10.344
G1 F900 X68.620 Y12.696 E454.99195
G0 F10500 X84.591 Y10.344
G1 F900 X86.056 Y11.810 E455.05368
;LAYER:46
G0 F10500 X86.232 Y10.170 Z17.905
;TYPE:WALL-INNER
G1 F780 X86.232 Y27.956 E455.58341
G1 X68.446 Y27.956 E456.11313
G1 X68.446 Y10.170 E456.64286
G1 X86.232 Y10.170 E457.17259
G0 F10500 X86.732 Y9.670
;TYPE:WALL-OUTER
G1 F660 X86.732 Y28.456 E457.73210
G1 X67.946 Y28.456 E458.29161
G1 X67.946 Y9.670 E458.85112
G1 X86.732 Y9.670 E459.41063
G0 F10500 X86.382 Y9.930
